!!!!SEGMENT: pl-sa--241-a-vii-1_gorczycki-grzegorz-gerwazy--laetatus-sum.krn
!!!cenid: 17xx:252
!!!COM: Gorczycki, Grzegorz Gerwazy
!!!COM-rismid: pe30009207
!!!CDT: ~1666-1734/04/30
!!!CNT: Polish
!!!OTL: Laetatus sum
!!!PDT: 1730
!!!AGN:
!!!SMS-siglum: PL-SA
!!!SMS-shelfmark: 241/A VII 1
!!!SMS-shelfwork: W
!!!NIFC-rismid: 1001035347
!!!URL-scan: http://bc.bdsandomierz.pl/dlibra/publication/1593/edition/1561/content
!!!ONB-nifc:
**kern	**fba	**kern	**kern	**kern	**text	**kern	**text	**kern	**text	**kern	**text	**kern	**kern
*part9	*	*part8	*part7	*part6	*part6	*part5	*part5	*part4	*part4	*part3	*part3	*part2	*part1
*	*	*group3	*group3	*group2	*	*group2	*	*group2	*	*group2	*	*group1	*group1
*staff9	*	*staff8	*staff7	*staff6	*staff6	*staff5	*staff5	*staff4	*staff4	*staff3	*staff3	*staff2	*staff1
*I"Organo	*	*I"Violino 2do.	*I"Violino 1mo.	*I"Basso	*	*I"Tenore	*	*I"Alto	*	*I"Canto	*	*I"Clarino 2 do	*I"Claro 1mo
*I'org	*	*I'vl 2	*I'vl 1	*I'B	*	*I'T	*	*I'A	*	*I'S	*	*I'clno 2	*I'clno 1
*clefF4	*	*clefG2	*clefG2	*clefF4	*	*clefC4	*	*clefC3	*	*clefC1	*	*clefG2	*clefG2
*k[]	*	*k[]	*k[]	*k[]	*	*k[]	*	*k[]	*	*k[]	*	*k[]	*k[]
*C:	*	*C:	*C:	*C:	*	*C:	*	*C:	*	*C:	*	*C:	*C:
*M2/2	*	*M2/2	*M2/2	*M2/2	*	*M2/2	*	*M2/2	*	*M2/2	*	*M2/2	*M2/2
*met(C.)	*	*met(c|)	*met(c|)	*met(c)	*	*met(C.)	*	*met(C.)	*	*met(c)	*	*met(c|)	*met(c|)
=1	=1	=1	=1	=1	=1	=1	=1	=1	=1	=1	=1	=1	=1
!	!	!LO:TX:b:t=Letatus Sum.	!LO:TX:b:t=Letatus.	!LO:TX:a:t=P:problem:nazwa głosu wpisana ołówkiem	!	!	!	!	!	!	!	!LO:TX:b:t=Letatus	!LO:TX:b:t=Letatus
!	!	!	!	!	!	!	!	!	!	!	!	!	!LO:TX:a:t=P:problem:w tym pliku nie działa ukrycie pojedynczej kreski taktowej =-
8rA	.	1r	1r	0rG	.	0r	.	8r	.	0r	.	0ra	0ra
!	!	!	!	!	!	!	!	!LO:TX:a:i:t=Solo	!	!	!	!	!
8c\L	.	.	.	.	.	.	.	8g\	Lae-	.	.	.	.
8B\	.	.	.	.	.	.	.	16g\LL	-ta-	.	.	.	.
.	.	.	.	.	.	.	.	16a\JJ	.	.	.	.	.
!LO:TX:a:i:t=Solo	!	!	!	!	!	!	!	!	!	!	!	!	!
8G\J	.	.	.	.	.	.	.	16g\LL	-tus	.	.	.	.
.	.	.	.	.	.	.	.	16f\JJ	.	.	.	.	.
8A\L	.	.	.	.	.	.	.	8e\	sum	.	.	.	.
8F\J	.	.	.	.	.	.	.	16f\LL	lae-	.	.	.	.
.	.	.	.	.	.	.	.	16e\JJ	.	.	.	.	.
!LO:TX:t=P:problem:mixed beam	!	!	!	!	!	!	!	!	!	!	!	!	!
8G\L	.	.	.	.	.	.	.	8.d\	-ta-	.	.	.	.
8GG/J	.	.	.	.	.	.	.	.	.	.	.	.	.
.	.	.	.	.	.	.	.	16d\	-tus	.	.	.	.
=2	=2	=2-	=2	=2	=2	=2	=2	=2	=2	=2	=2	=2	=2
4C/	.	8r	8r	.	.	.	.	4c/	sum	.	.	.	.
.	.	8ee\	8gg\	.	.	.	.	.	.	.	.	.	.
4r	.	16ee\LL	16gg\LL	.	.	.	.	4r	.	.	.	.	.
.	.	16ff\	16aa\	.	.	.	.	.	.	.	.	.	.
.	.	16ee\	16gg\	.	.	.	.	.	.	.	.	.	.
.	.	16dd\JJ	16ff\JJ	.	.	.	.	.	.	.	.	.	.
8c\L	.	16cc\LL	16ee\LL	.	.	.	.	2r	.	.	.	.	.
.	.	16ee\	16gg\	.	.	.	.	.	.	.	.	.	.
8F\J	.	16dd\	16ff\	.	.	.	.	.	.	.	.	.	.
.	.	16cc\JJ	16ee\JJ	.	.	.	.	.	.	.	.	.	.
!LO:TX:t=P:problem:mixed beam	!	!	!	!	!	!	!	!	!	!	!	!	!
8G\L	.	8b\L	16dd\LL	.	.	.	.	.	.	.	.	.	.
.	.	.	16cc\	.	.	.	.	.	.	.	.	.	.
8GG/J	.	8b\J	16dd\	.	.	.	.	.	.	.	.	.	.
.	.	.	16ee\JJ	.	.	.	.	.	.	.	.	.	.
=3	=3	=3	=3	=3-	=3	=3-	=3	=3	=3	=3	=3	=3-	=3-
4C/	.	4cc\	4cc\	2rG	.	2r	.	8r	.	2rcc	.	2ra	2ree
.	.	.	.	.	.	.	.	8g\	lae-	.	.	.	.
4r	.	4r	4r	.	.	.	.	16g\LL	-ta-	.	.	.	.
.	.	.	.	.	.	.	.	16a\	.	.	.	.	.
.	.	.	.	.	.	.	.	16g\	.	.	.	.	.
.	.	.	.	.	.	.	.	16a\JJ	.	.	.	.	.
8rA	.	8r	8r	8r	.	8r	.	16g\LL	.	8rdd	.	8r	8r
.	.	.	.	.	.	.	.	16a\	.	.	.	.	.
8c\L	.	8ee\L	8gg\L	8c\	Lae-	8e\	Lae-	16g\	.	8ee\	Lae-	8ee\L	8gg\L
.	.	.	.	.	.	.	.	16a\JJ	.	.	.	.	.
8B\	.	8dd\	8gg\	8B\	-ta-	8B\	-ta-	16g\LL	.	8dd\	-ta-	8dd\	8gg\
.	.	.	.	.	.	.	.	16a\	.	.	.	.	.
8G\J	.	8b\J	8gg\J	8G\	-tus	8B\	-tus	16g\	.	8dd\	-tus	8dd\J	8gg\J
.	.	.	.	.	.	.	.	16a\JJ	.	.	.	.	.
=4	=4	=4	=4	=4	=4	=4	=4	=4	=4	=4	=4	=4	=4
8rA	.	8r	8r	8r	.	8r	.	16g\LL	.	8r	.	8r	8ree
.	.	.	.	.	.	.	.	16a\	.	.	.	.	.
*	*	*	*	*	*ij	*	*ij	*	*	*	*ij	*	*
8c\L	.	8g\L	8gg\L	8c\	Lae-	8e\	Lae-	16g\	.	8ee\	Lae-	8ee\L	8gg\L
.	.	.	.	.	.	.	.	16a\JJ	.	.	.	.	.
8B\	.	8dd\	8gg\	8B\	-ta-	8B\	-ta-	16g\LL	.	8dd\	-ta-	8dd\	8gg\
.	.	.	.	.	.	.	.	16a\	.	.	.	.	.
8G\J	.	8b\J	8gg\J	8G\	-tus	8B\	-tus	16g\	.	8dd\	-tus	8dd\J	8gg\J
*	*	*	*	*	*Xij	*	*Xij	*	*	*	*	*	*
.	.	.	.	.	.	.	.	16a\JJ	.	.	.	.	.
8r	.	8r	8r	8r	.	8r	.	16g\LL	.	8r	.	8r	8rff
.	.	.	.	.	.	.	.	16a\	.	.	.	.	.
8E\L	.	8ee\L	8gg\L	8E\	lae-	8c\	Lae-	16g\	.	8g/	Lae-	8ee\L	8gg\L
.	.	.	.	.	.	.	.	16f\JJ	.	.	.	.	.
8A\	6	8ee\	8aa\	8A\	-ta-	8c\	-ta-	8e\	.	8cc\	-ta-	8dd\	8aa\
8E\J	.	8ee\J	8gg\J	8E\	-tus	8c\	-tus	8e\	-tus	8e/	-tus	8dd\J	8gg\J
*	*	*	*	*	*	*	*	*	*	*	*Xij	*	*
!	!	!	!	!	!	!	!	!LO:LB:g=original	!	!	!	!	!
=5	=5	=5	=5	=5	=5	=5	=5	=5	=5	=5	=5	=5	=5
!LO:TX:t=P:problem:mixed beam	!	!	!	!	!	!	!	!	!	!	!	!	!
8F\L	.	8cc\L	8ff\L	8F\	lae-	8c\	sum	8r	.	8cc\	Sum	8cc\L	16ff\LL
.	.	.	.	.	.	.	.	.	.	.	.	.	16gg\
8D\	7	16cc\L	8aa\J	8D/	-ta-	8c\	lae-	8f\	lae-	8ff\	lae-	8cc\J	16ff\
.	.	16ff\JJ	.	.	.	.	.	.	.	.	.	.	16ee\JJ
!	!	!	!	!LO:TX:t=P:problem:mixed beam	!	!	!	!	!	!	!	!	!
8G\	.	8dd\L	8.gg\L	8G\L	.	4B\	-ta-	8.g\	-ta-	4dd\	-ta-	8g/L	8dd\L
8GG/J	.	8dd\J	.	8GG/J	.	.	.	.	.	.	.	8g/J	8dd\J
.	.	.	16gg\Jk	.	.	.	.	16g\	-tus	.	.	.	.
!	!	!	!	!	!	!	!	!	!	!	!	!LO:TX:t=P:problem:mixed beam	!
4C/	.	4ee\	8gg\L	4C/	-tus	4c\	-tuſ	4e\	sum	4cc\	-tus	8e/L	8cc\L
.	.	.	8gg\J	.	.	.	.	.	.	.	.	8ee\	8gg\
8A\L	.	8ee\L	8aa\L	4r	.	4r	.	4r	.	4r	.	8ee\	8aa\
8E\J	.	8ee\J	8gg\J	.	.	.	.	.	.	.	.	8ee\J	8gg\J
!	!	!LO:LB:g=original	!LO:LB:g=original	!	!	!	!	!	!	!	!	!	!
=6	=6	=6	=6	=6-	=6	=6	=6	=6	=6	=6	=6	=6	=6
8F\L	.	16dd\LL	16ff\LL	0r	.	0r	.	2r	.	0rcc	.	16dd\LL	16ff\LL
.	.	16ee\	16gg\	.	.	.	.	.	.	.	.	16ee\	16gg\
8D\J	.	16dd\	16ff\	.	.	.	.	.	.	.	.	16dd\	16ff\
.	.	16cc\JJ	16ee\JJ	.	.	.	.	.	.	.	.	16cc\JJ	16ee\JJ
!LO:LB:g=original	!	!	!	!	!	!	!	!	!	!	!	!	!
!LO:TX:t=P:problem:mixed beam	!	!	!	!	!	!	!	!	!	!	!	!	!
8G\L	.	8g/L	8.dd\L	.	.	.	.	.	.	.	.	8g/L	8dd\L
8GG/J	.	8g/J	.	.	.	.	.	.	.	.	.	8g/J	8dd\J
.	.	.	16dd\Jk	.	.	.	.	.	.	.	.	.	.
!LO:TX:t=P:problem:mixed beam	!	!	!	!	!	!	!	!	!	!	!	!	!
8C/L	.	4e/	4cc\	.	.	.	.	8r	.	.	.	4e/	8cc\L
8c\J	.	.	.	.	.	.	.	8e\	in	.	.	.	8cc\J
8B\L	.	4r	4r	.	.	.	.	8d\	his	.	.	4r	4r
8A\J	.	.	.	.	.	.	.	8c\	quae	.	.	.	.
=7	=7	=7	=7	=7	=7	=7	=7	=7	=7	=7	=7	=7	=7
4G\	.	1r	1rcc	.	.	.	.	16d\LL	di-	.	.	0ra	0ra
.	.	.	.	.	.	.	.	16e\	.	.	.	.	.
.	.	.	.	.	.	.	.	16d\	.	.	.	.	.
.	.	.	.	.	.	.	.	16c\JJ	.	.	.	.	.
8r	.	.	.	.	.	.	.	16B\LL	.	.	.	.	.
.	.	.	.	.	.	.	.	16e\	.	.	.	.	.
8G\	6	.	.	.	.	.	.	16d\	.	.	.	.	.
.	.	.	.	.	.	.	.	16e\JJ	.	.	.	.	.
4A\	.	.	.	.	.	.	.	16c\LL	.	.	.	.	.
.	.	.	.	.	.	.	.	16d\	.	.	.	.	.
.	.	.	.	.	.	.	.	16c\	.	.	.	.	.
.	.	.	.	.	.	.	.	16B\JJ	.	.	.	.	.
8r	.	.	.	.	.	.	.	16A\LL	.	.	.	.	.
.	.	.	.	.	.	.	.	16d\	.	.	.	.	.
8F\	.	.	.	.	.	.	.	16c\	.	.	.	.	.
.	.	.	.	.	.	.	.	16d\JJ	.	.	.	.	.
=8	=8	=8-	=8-	=8-	=8	=8-	=8	=8	=8	=8	=8	=8	=8
8G\L	.	2r	2ra	2rG	.	2r	.	8B/	-cta	2rcc	.	.	.
8C\J	.	.	.	.	.	.	.	16c/	sunt	.	.	.	.
.	.	.	.	.	.	.	.	16B/	.	.	.	.	.
4D/	.	.	.	.	.	.	.	4A/	mi-	.	.	.	.
!LO:TX:t=P:problem:mixed beam	!	!	!	!	!	!	!	!	!	!	!	!	!
8GG/L	.	8r	8r	8r	.	8r	.	8B/	-hi	8rcc	.	.	.
8G\J	.	8b/L	8g/	8G\	in	8G/	in	8d\	lae-	8b\	in	.	.
8F#X\L	6	8a/	8dd\L	8F#X\	do-	8A/	Do-	16d\LL	-ta-	8a\	Do-	.	.
.	.	.	.	.	.	.	.	16e\	.	.	.	.	.
8D\J	.	8a/J	8dd\J	8C/	-mum	8F#X/	-mum	16d\	.	8a\	-mum	.	.
.	.	.	.	.	.	.	.	16e\JJ	.	.	.	.	.
!	!	!	!	!	!	!	!	!	!	!LO:LB:g=original	!	!	!
=9	=9	=9	=9	=9	=9	=9	=9	=9	=9	=9	=9	=9	=9
!LO:TX:a:t=P:problem:nadmiarowy takt w vl 1	!	!LO:TX:a:t=P:problem:nadmiarowy takt w vl 1	!LO:TX:a:t=P:problem:nadmiarowy	!LO:TX:a:t=P:problem:nadmiarowy takt w vl 1	!	!LO:TX:a:t=P:problem:nadmiarowy takt w vl 1	!	!LO:TX:a:t=P:problem:nadmiarowy takt w vl 1	!	!LO:TX:a:t=P:problem:nadmiarowy takt w vl 1	!	!LO:TX:a:t=P:problem:nadmiarowy takt w vl 1	!LO:TX:a:t=P:problem:nadmiarowy takt w vl 1
1ryy	.	1ryy	8r	1ryy	.	1ryy	.	1ryy	.	1ryy	.	1ryy	1ryy
.	.	.	8b\	.	.	.	.	.	.	.	.	.	.
.	.	.	8dd\L	.	.	.	.	.	.	.	.	.	.
.	.	.	8dd\J	.	.	.	.	.	.	.	.	.	.
.	.	.	2ra	.	.	.	.	.	.	.	.	.	.
=10	=10	=10	=10	=10	=10	=10	=10	=10	=10	=10	=10	=10-	=10-
8rG	.	8r	8r	8rA	.	8r	.	16d\LL	.	8r	.	1rcc	1rcc
.	.	.	.	.	.	.	.	16e\	.	.	.	.	.
*	*	*	*	*	*ij	*	*	*	*	*	*ij	*	*
8G\L	.	8b/L	8b\L	8G\	in	8G/	in	16d\	.	8b\	in	.	.
.	.	.	.	.	.	.	.	16e\JJ	.	.	.	.	.
!	!	!	!	!	!	!LO:LB:g=original	!	!LO:LB:g=original	!	!	!	!	!
!LO:SIC:s=8F#:v	!	!	!	!	!	!	!	!	!	!	!	!	!
8F\	6	8a/	8dd\	8F#X\	do-	8A/	Do-	16d\LL	.	8a\	Do-	.	.
.	.	.	.	.	.	.	.	16e\	.	.	.	.	.
8D\J	.	8a/J	8dd\J	8D/	-mum	8F#X/	-mu(m)	16d\	.	8a\	-mum	.	.
.	.	.	.	.	.	.	.	16e\JJ	.	.	.	.	.
8r	.	8r	8r	8r	.	8r	.	16d\LL	.	8r	.	.	.
.	.	.	.	.	.	.	.	16e\	.	.	.	.	.
!	!	!	!	!LO:LB:g=original	!	!	!	!	!	!	!	!	!
*	*	*	*	*	*	*	*ij	*	*	*	*	*	*
8D\L	.	8a/	8dd\L	8D/	in	8A/	in	16d\	.	8f#X/	in	.	.
.	.	.	.	.	.	.	.	16c\JJ	.	.	.	.	.
!LO:SIC:s=8F#:v	!	!	!	!	!	!	!	!	!	!	!	!	!
8F\	6	8ee\L	8gg\	8E\	Do-	8G/	Do-	8B/	.	8g/	Do-	.	.
8D\J	.	8dd\J	8gg\J	8BB/	-mum	8G/	-mum	8B/	-tus	8g/	-mum	.	.
*	*	*	*	*	*Xij	*	*Xij	*	*	*	*Xij	*	*
=11	=11	=11	=11	=11	=11	=11	=11	=11	=11	=11	=11	=11	=11-
8C/L	.	8cc\L	8ee\L	8C/	Do-	8G/	Do-	8r	.	8cc\	Do-	2ra	2ra
8AA/J	.	16cc\L	8gg\J	16AA/	-mi-	16c\	-mi-	8g\	lae-	16cc\	-mi-	.	.
.	.	16b\JJ	.	16AA/	-ni	16c\	-ni	.	.	16b\	-ni	.	.
4D/	4	4a/	4aa\	8.D/	i-	8.d\	i-	8.f#X\	-ta-	8.a\	i-	.	.
.	3	.	.	16D/	-bi-	16d\	-bi-	16f#\	-tus	16a\	-bi-	.	.
!LO:TX:t=P:problem:mixed beam	!	!	!	!	!	!	!	!	!	!	!	!	!
8GG/L	.	8b\L	8gg\L	8GG/	-mus	8B\	-mus	8g\	sum	8b\	-mus	8r	8r
8c\	.	8ee\	8gg\J	8c\	Lae-	8c\	lae-	8g\	lae-	8ee\	lae-	8ee\L	8gg\
!	!	!	!	!	!	!	!	!	!	!	!	!	!LO:LB:g=original
8B\	6	8dd\	16gg\LL	8B\	-ta-	8d\	-ta-	8g\	-ta-	8dd\	-ta-	8dd\	16gg\LL
.	.	.	16aa\	.	.	.	.	.	.	.	.	.	16aa\
8G\J	.	8dd\J	16gg\	8G\	-tus	8B\	-tuſ	8g\	-tus	8dd\	-tus	8dd\J	16gg\
.	.	.	16aa\JJ	.	.	.	.	.	.	.	.	.	16aa\JJ
=12	=12	=12	=12	=12	=12	=12	=12	=12	=12	=12	=12	=12-	=12
8rA	.	8r	16gg\LL	8rA	.	8r	.	8r	.	8r	.	8r	16gg\LL
.	.	.	16aa\	.	.	.	.	.	.	.	.	.	16aa\
*	*	*	*	*	*ij	*	*ij	*	*ij	*	*ij	*	*
8c\L	.	8ee\L	16gg\	8c\	Lae-	8c\	lae-	8g\	lae-	8ee\	lae-	8ee\L	16gg\
.	.	.	16aa\JJ	.	.	.	.	.	.	.	.	.	16aa\JJ
!	!	!	!LO:LB:g=original	!	!	!	!	!	!	!	!	!	!
8B\	6	8dd\	16gg\LL	8B\	-ta-	8d\	-ta-	8g\	-ta-	8dd\	-ta-	8dd\	16gg\LL
.	.	.	16aa\	.	.	.	.	.	.	.	.	.	16aa\
8G\J	.	8dd\J	16gg\	8G\	-tus	8B\	-tuſ	8g\	-tus	8dd\	-tus	8dd\J	16gg\
*	*	*	*	*	*	*	*Xij	*	*Xij	*	*	*	*
!	!	!	!	!	!	!	!	!	!	!	!	!LO:TX:a:t=P:problem:przekreślona zbędna kreska taktowa	!
.	.	.	16aa\JJ	.	.	.	.	.	.	.	.	.	16aa\JJ
!	!	!	!	!	!	!	!	!	!	!	!	!LO:LB:g=original	!
8rA	.	8r	8gg\L	8rF	.	8r	.	8r	.	8r	.	8r	8gg\L
8E\	6	8ee\L	8gg\J	8E\	Lae-	8c\	lae-	8g\	lae-	8g/	lae-	8ee\L	8gg\
!LO:LB:g=original	!	!	!	!	!	!	!	!	!	!	!	!	!
8A\L	.	8ee\	8aa\L	8A\	-ta-	8c\	-ta-	8e\	-ta-	8cc\	-ta-	8ee\	8aa\
8E\J	.	8ee\J	8gg\J	8E\	-tus	8c\	-tus	8g\	-tus	8g/	-tus	8ee\J	8gg\J
*	*	*	*	*	*Xij	*	*	*	*	*	*Xij	*	*
!	!	!	!	!	!	!	!	!	!	!LO:LB:original	!	!	!
=13	=13	=13	=13	=13	=13	=13	=13	=13	=13	=13	=13	=13	=13
8F\L	.	8cc\L	16ff\LL	8F\	Sum	8c\	sum	8a\	sum	8cc\	su(m)	8cc\L	16ff\LL
.	.	.	16gg\	.	.	.	.	.	.	.	.	.	16gg\
8D\J	7	8dd\J	16ff\	8D/	Lae-	8c\	lae-	8f\	lae-	8ff\	lae-	8dd\	16ff\
.	.	.	16ee\JJ	.	.	.	.	.	.	.	.	.	16ee\JJ
!	!	!	!	!	!	!LO:LB:g=original	!	!	!	!	!	!	!
!	!	!	!	!LO:TX:t=P:problem:mixed beam	!	!LO:SIC:custos na końcu linijki:v	!	!	!	!	!	!	!
4G\	.	8.dd\L	16dd\LL	8G\L	-ta-	4B\	-ta-	4g\	-ta-	4dd\	-ta-	8dd\	16dd\LL
.	.	.	16gg\	.	.	.	.	.	.	.	.	.	16gg\
.	.	.	16ff\	8GG/J	.	.	.	.	.	.	.	8dd\J	16ff\
.	.	16cc\Jk	16gg\JJ	.	.	.	.	.	.	.	.	.	16gg\JJ
!	!	!LO:LB:g=original	!	!	!	!	!	!	!	!	!	!	!
4C/	.	8cc\L	16ee\LL	4C/	-tus	4c\	-tus	4g\	-tuſ	4cc\	-tus	8cc\L	16ee\LL
.	.	.	16ff\	.	.	.	.	.	.	.	.	.	16ff\
.	.	8g\J	16ee\	.	.	.	.	.	.	.	.	8g\	16ee\
.	.	.	16dd\JJ	.	.	.	.	.	.	.	.	.	16dd\JJ
8A\L	.	8cc\L	8cc\L	4r	.	4r	.	4r	.	4r	.	8cc\	8cc\L
8E\J	6	8ee\J	8gg\J	.	.	.	.	.	.	.	.	8ee\J	8gg\J
!	!	!	!	!	!	!	!	!LO:LB:g=original	!	!	!	!	!
=14	=14	=14	=14	=14-	=14	=14	=14	=14	=14	=14	=14	=14	=14
8F\L	.	16dd\LL	16ff\LL	00r	.	1r	.	2rf	.	0rcc	.	16dd\LL	16ff\LL
.	.	16ee\	16gg\	.	.	.	.	.	.	.	.	16ee\	16gg\
8D\J	.	16dd\	16ff\	.	.	.	.	.	.	.	.	16dd\	16ff\
.	.	16cc\JJ	16ee\JJ	.	.	.	.	.	.	.	.	16cc\JJ	16ee\JJ
!LO:TX:t=P:problem:mixed beam	!	!	!	!	!	!	!	!	!	!	!	!	!
8G\L	.	4g/	8.dd\L	.	.	.	.	.	.	.	.	4g/	8.dd\L
8GG/J	.	.	.	.	.	.	.	.	.	.	.	.	.
.	.	.	16dd\Jk	.	.	.	.	.	.	.	.	.	16dd\Jk
*	*	*	*	*	*	*	*	*2\right	*	*	*	*	*
8C/L	.	4e/	4cc\	.	.	.	.	2g\	ſtan-	.	.	4e/	4cc\
8D/	.	.	.	.	.	.	.	.	.	.	.	.	.
8E/	.	4r	4r	.	.	.	.	.	.	.	.	4r	4r
8F/J	.	.	.	.	.	.	.	.	.	.	.	.	.
=15	=15	=15-	=15	=15	=15	=15-	=15	=15	=15	=15	=15	=15	=15
!LO:TX:a:t=Tut	!	!	!	!	!	!	!	!	!	!	!	!	!
8G\L	.	0r	0ra	.	.	2r	.	2g\	-tes	.	.	0ra	0r
8A\	.	.	.	.	.	.	.	.	.	.	.	.	.
8B\	.	.	.	.	.	.	.	.	.	.	.	.	.
8G\J	.	.	.	.	.	.	.	.	.	.	.	.	.
*	*	*	*	*	*	*2\right	*	*	*	*	*	*	*
8c\L	.	.	.	.	.	2c\	Stan-	2g\	e-	.	.	.	.
8B\	.	.	.	.	.	.	.	.	.	.	.	.	.
8A\	.	.	.	.	.	.	.	.	.	.	.	.	.
8G\J	.	.	.	.	.	.	.	.	.	.	.	.	.
=16	=16	=16	=16	=16	=16	=16	=16	=16	=16	=16-	=16	=16	=16
8F\L	.	.	.	.	.	[<2c\	-tes	8a\	-rant	2rcc	.	.	.
8E\	.	.	.	.	.	.	.	8g\	pe-	.	.	.	.
8F\	.	.	.	.	.	.	.	8f\	-des	.	.	.	.
8C\J	.	.	.	.	.	.	.	8e\	no-	.	.	.	.
*	*	*	*	*	*	*	*	*	*	*2\right	*	*	*
8F\L	.	.	.	.	.	2c\]	.	2f\	.	2cc\	Stan-	.	.
8E\	.	.	.	.	.	.	.	.	.	.	.	.	.
8F\	.	.	.	.	.	.	.	.	.	.	.	.	.
8G\J	.	.	.	.	.	.	.	.	.	.	.	.	.
=17	=17	=17-	=17-	=17	=17	=17	=17	=17	=17	=17	=17	=17-	=17-
8A\L	.	1r	1r	.	.	8c\	e-	2e\	.	2cc\	-tes	1rcc	1r
8G\	.	.	.	.	.	8G/	-rant	.	.	.	.	.	.
8A\	.	.	.	.	.	8A/	pe-	.	.	.	.	.	.
8E\J	6	.	.	.	.	8E/	-des	.	.	.	.	.	.
!LO:TX:t=P:problem:mixed beam	!	!	!	!	!	!	!	!	!	!	!	!	!
8F\L	6 5	.	.	.	.	(8F/L	.	2d\	.	(4cc\	Stan-	.	.
8E\	.	.	.	.	.	8D/J)	.	.	.	.	.	.	.
8G\	.	.	.	.	.	4A/	noſ-	.	.	4b\)	.	.	.
8GG/J	.	.	.	.	.	.	.	.	.	.	.	.	.
=18	=18	=18	=18	=18-	=18	=18	=18	=18	=18	=18	=18	=18	=18-
*	*	*2\right	*2\center	*	*	*	*	*	*	*	*	*2\right	*2\right
8C/L	.	2cc\	2cc\	00r	.	4D/	-tri	4e\	-stri	4cc\	-tes	2cc\	2cc\
8BB/	.	.	.	.	.	.	.	.	.	.	.	.	.
8AA/	.	.	.	.	.	4r	.	4r	.	4r	.	.	.
8GG/J	.	.	.	.	.	.	.	.	.	.	.	.	.
!LO:LB:g=original	!	!	!	!	!	!	!	!	!	!	!	!	!
8F\L	.	2cc\	2cc\	.	.	2rF	.	2r	.	2rcc	.	2cc\	2cc\
8E\	.	.	.	.	.	.	.	.	.	.	.	.	.
8D\	.	.	.	.	.	.	.	.	.	.	.	.	.
8C\J	.	.	.	.	.	.	.	.	.	.	.	.	.
!	!	!	!	!	!	!	!	!	!	!	!	!	!LO:LB:g=original
=19	=19	=19	=19	=19	=19	=19	=19	=19	=19	=19-	=19	=19	=19
!	!	!	!	!	!	!	!	!	!	!	!	!	!LO:TX:a:t=P:problem:trudny do odszyfrowania rytm ,powinno być jak w vl 1
!	!	!	!	!	!	!	!	!	!	!	!	!	!LO:N:vis=2
8F\L	.	4cc\	8cc\L	.	.	1rA	.	1r	.	0rcc	.	4cc\	4cc\
8G\	.	.	8g\J	.	.	.	.	.	.	.	.	.	.
8A\	.	8cc\L	8cc\L	.	.	.	.	.	.	.	.	8cc\L	4g\
8E\J	6	8g\J	8ee\J	.	.	.	.	.	.	.	.	8g\J	.
!LO:TX:t=P:problem:mixed beam	!	!	!	!	!	!	!	!	!	!	!	!	!
8F\L	6 5	4cc\	4dd\	.	.	.	.	.	.	.	.	4cc\	8cc\L
8D\	.	.	.	.	.	.	.	.	.	.	.	.	8ee\J
8G\	.	4g/	8.dd\L	.	.	.	.	.	.	.	.	4g/	8.dd\L
8GG/J	.	.	.	.	.	.	.	.	.	.	.	.	.
.	.	.	16cc\Jk	.	.	.	.	.	.	.	.	.	16cc\Jk
=20	=20	=20	=20	=20	=20	=20-	=20	=20-	=20	=20	=20	=20	=20
4.C/	.	4e/	4cc\	.	.	4r	.	8r	.	.	.	4e/	4cc\
.	.	.	.	.	.	.	.	8g\	in	.	.	.	.
.	.	4r	4r	.	.	8r	.	8g\	a-	.	.	4r	4r
8C/	.	.	.	.	.	8c\	-in	16g\	-tri-	.	.	.	.
!	!	!	!	!	!	!	!	!LO:SIC:l:s=-is:v	!	!	!	!	!
.	.	.	.	.	.	.	.	16f\	-js	.	.	.	.
4E\	6	2rf	2ra	.	.	8c\	a-	8e\	tu-	.	.	2ra	2ra
.	.	.	.	.	.	16B\	-tri-	8e\	-is	.	.	.	.
!	!	!	!	!	!	!LO:SIC:l:s=-is:v	!	!	!	!	!	!	!
.	.	.	.	.	.	16B\	-js	.	.	.	.	.	.
4F\	.	.	.	.	.	8A/	tu-	8r	.	.	.	.	.
.	.	.	.	.	.	16A/	-is	8c/	in	.	.	.	.
.	.	.	.	.	.	16A/	in	.	.	.	.	.	.
!	!	!	!LO:LB:g=original	!	!	!LO:LB:g=original	!	!	!	!	!	!	!
=21	=21	=21	=21	=21	=21	=21	=21	=21	=21	=21-	=21	=21	=21
4D\	.	2ra	1rcc	.	.	8d\	a-	8f\	a-	1ree	.	1rcc	1rcc
.	.	.	.	.	.	16d\	-tri-	16f\	-tri-	.	.	.	.
!	!	!	!	!	!	!LO:SIC:l:s=-is:v	!	!LO:SIC:l:s=-is:v	!	!	!	!	!
.	.	.	.	.	.	16c\	-js	16e\	-js	.	.	.	.
!	!	!	!	!	!	!	!	!LO:LB:g=original	!	!	!	!	!
4G\	.	.	.	.	.	8B\	tu-	4d\	tu-	.	.	.	.
.	.	.	.	.	.	8B\	-is	.	.	.	.	.	.
8E\L	6	4.r	.	.	.	4c\	Je-	8e\	-is	.	.	.	.
8C\J	.	.	.	.	.	.	.	8g\	Je-	.	.	.	.
4D/	.	.	.	.	.	8.A\	-ru-	8.g\	-ru-	.	.	.	.
.	.	8dd\	.	.	.	.	.	.	.	.	.	.	.
.	.	.	.	.	.	16A\	-ſa-	16f#X\	-ſa-	.	.	.	.
!	!	!	!	!LO:LB:g=original	!	!	!	!	!	!	!	!	!
=22	=22	=22	=22	=22	=22	=22	=22	=22	=22	=22-	=22	=22	=22-
4GG/	.	16dd\LL	8r	2rF	.	4B\	-lem	4g\	-lem	2rcc	.	2ra	2ra
.	.	16ee\	.	.	.	.	.	.	.	.	.	.	.
.	.	16dd\	8gg\	.	.	.	.	.	.	.	.	.	.
.	.	16cc\JJ	.	.	.	.	.	.	.	.	.	.	.
8r	.	8b\L	16gg\LL	.	.	4r	.	4rd	.	.	.	.	.
.	.	.	16aa\	.	.	.	.	.	.	.	.	.	.
8G\	.	8b\J	16gg\	.	.	.	.	.	.	.	.	.	.
.	.	.	16ff\JJ	.	.	.	.	.	.	.	.	.	.
8A\L	.	8cc\L	8ee\L	4r	.	4r	.	4r	.	4r	.	4r	4r
8F\J	.	16dd\L	16ff\L	.	.	.	.	.	.	.	.	.	.
.	.	16cc\JJ	16ee\JJ	.	.	.	.	.	.	.	.	.	.
4G\	.	4b\	4dd\	4G\	Je-	4d\	Je-	4g\	Je-	4b\	Je-	4g/	4dd\
!	!	!	!	!	!	!	!	!	!	!	!	!LO:LB:g=original	!
=23	=23	=23	=23	=23	=23	=23	=23	=23	=23	=23	=23	=23	=23
8.E\L	6	8cc\L	4ee\	8.E\	-ru-	8.c\	-ru-	8.g\	-ru-	8.cc\	-ru-	8cc\L	8ee\L
.	.	8cc\J	.	.	.	.	.	.	.	.	.	8cc\J	8ee\J
16D\Jk	.	.	.	16D/	-sa-	16c\	-sa-	16f\	-ſa-	16cc\	-ſa-	.	.
4C/	.	4cc\	4ee\	4C/	-lem	4c\	-lem	4e\	-lem	4cc\	-lem	4cc\	4ee\
8c\L	.	8ee\L	8gg\L	8c\	quae	8c\	quae	8e\	quae	8ee\	quae	8ee\L	8gg\L
!	!	!	!	!LO:SIC:l:s=ae-:v	!	!	!	!	!	!LO:SIC:l:s=ae-:v	!	!	!
8B\	.	8dd\J	8gg\	8B\	e-	8d\	ae-	8g\	ae-	8dd\	e-	8dd\	8gg\
!	!	!LO:LB:g=original	!	!	!	!	!	!	!	!	!	!	!
8c\	.	8ee\L	8gg\	8c\	-di-	8c\	-di-	8c/	-di-	8ee\	-di-	8ee\	8gg\
8G\J	.	8dd\J	8gg\J	8G\	-fi-	8B\	-fi-	8d\	-fi-	8dd\	-fi-	8dd\J	8gg\J
=24	=24	=24	=24	=24	=24	=24	=24	=24	=24	=24	=24	=24	=24
4A\	.	8cc\L	8ee\L	8A\	-ca-	8c\	-ca-	8e\	-ca-	8cc\	-ca-	8cc\L	8ee\L
.	.	8cc\J	8ee\J	8A\	-tur	8A/	-tur	8e\	-tur	8cc\	-tur	8cc\J	8ee\J
8r	.	8r	8r	4rG	.	8r	.	8r	.	8r	.	4r	8r
8E\	#	8ee\	8ee\	.	.	8B\	ut	8g#X\	ut	8b\	ut	.	8ee\
!	!	!	!	!	!	!	!	!	!	!LO:LB:g=original	!	!	!
4D\	6	4ff\	4aa\	(8E\	Ut	4.B\	Ci-	4a\	.	4dd\	Ci-	8ee\	4aa\
.	.	.	.	8D/)	.	.	.	.	.	.	.	4ff\	.
4E\	#	4ee\	4gg#X\	8.E\	Ci-	.	.	8.e\	Ci-	[8.b\	-vi-	.	4gg#X\
.	.	.	.	.	.	8B\	-vi-	.	.	.	.	8ee\	.
.	.	.	.	16E\	-vi-	.	.	16e\	-vi-	16b\]	.	.	.
!	!	!	!	!	!	!LO:LB:g=original	!	!	!	!	!	!	!
=25	=25	=25	=25	=25	=25	=25	=25	=25	=25	=25	=25	=25	=25
4AA/	.	4ee\	4aa\	4AA/	-tas	8A\	-tas	4c/	-tas	4cc\	-tas	4ee\	4aa\
.	.	.	.	.	.	8A\	Cu-	.	.	.	.	.	.
!LO:LB:g=original	!	!	!	!	!	!	!	!	!	!	!	!	!
4A\	.	4r	4r	4r	.	8A\	-jus	4r	.	4r	.	4r	4r
.	.	.	.	.	.	8B\	par-	.	.	.	.	.	.
4.E\	6	2ra	2ra	8r	.	8c\	-ti-	2r	.	2rcc	.	2ra	2r
.	.	.	.	8E\	Cu-	8c\	-ti-	.	.	.	.	.	.
.	.	.	.	8E\	-ius	8c\	-pa-	.	.	.	.	.	.
8F\	.	.	.	8F\	par-	16B\	-ti-	.	.	.	.	.	.
.	.	.	.	.	.	16A\	-o	.	.	.	.	.	.
!	!	!	!	!	!	!	!	!LO:LB:g=original	!	!	!	!	!
=26	=26	=26-	=26	=26	=26	=26	=26	=26	=26	=26-	=26	=26	=26
4G\	.	0r	0ra	8G\	-ti-	8B\	e-	8r	.	0ree	.	0ra	0r
.	.	.	.	8G\	-ti-	8B\	-jus	8d\	Cu-	.	.	.	.
8rG	.	.	.	8G\	-pa-	8r	.	8d\	-jus	.	.	.	.
8G\	.	.	.	16F\	-ti-	8c\	par-	8e\	par-	.	.	.	.
.	.	.	.	16E\	-o	.	.	.	.	.	.	.	.
!	!	!	!	!LO:LB:g=original	!	!	!	!	!	!	!	!	!
4D/	.	.	.	8D/	e-	8d\	-ti-	8f\	-ti-	.	.	.	.
.	.	.	.	8D/	-ius	8d\	-ti-	8f\	-ti	.	.	.	.
8r	.	.	.	8r	.	8d\	-pa-	8f\	pa-	.	.	.	.
8D/	.	.	.	8D/	par-	16c\	-ti-	16e\	-ci-	.	.	.	.
.	.	.	.	.	.	16B\	-o	16d\	-o	.	.	.	.
=27	=27	=27	=27	=27	=27	=27	=27	=27	=27	=27	=27	=27	=27
4AA/	.	.	.	8A\	-ti-	8c\	-e-	8e\	e-	.	.	.	.
.	.	.	.	8A\	-ti-	8c\	-jus	8e\	-jus	.	.	.	.
8rG	.	.	.	8A\	-pa-	16c\LL	in	16e\LL	in	.	.	.	.
.	.	.	.	.	.	16d\	.	16f\	.	.	.	.	.
8A\	.	.	.	16G\	-ti-	16c\	.	16e\	id-	.	.	.	.
.	.	.	.	16F\	-o	16d\JJ	.	16f\JJ	.	.	.	.	.
8E\L	6	.	.	8E\	in	8e\	id-	8g\	-ips-	.	.	.	.
!	!	!	!	!LO:SIC:l:s=id-:v	!	!	!	!	!	!	!	!	!
8F\J	.	.	.	8F\	j-	(16d\LL	-ip-	(16f\LL	-i-	.	.	.	.
.	.	.	.	.	.	16c\JJ)	.	16e\JJ)	.	.	.	.	.
!	!	!	!	!LO:SIC:l:s=-ip-:v	!	!	!	!	!	!	!	!	!
4G\	.	.	.	4G\	-dip-	4B\	.	4d\	-um	.	.	.	.
!	!	!	!	!	!	!LO:LB:g=original	!	!	!	!	!	!	!
=28	=28	=28-	=28-	=28	=28	=28	=28	=28	=28	=28-	=28	=28-	=28-
4C/	.	4r	4r	4C/	-sum	4c\	-sum	4e\	.	1ree	.	1rcc	1r
8c\L	.	8ee\L	8gg\L	4r	.	4r	.	4r	.	.	.	.	.
8B\	6	8gg\J	8dd\J	.	.	.	.	.	.	.	.	.	.
8c\	.	8cc\L	8ee\L	2rC	.	2rF	.	2r	.	.	.	.	.
8B\J	6	8dd\J	8gg\J	.	.	.	.	.	.	.	.	.	.
4A\	7	8cc\L	8gg\L	.	.	.	.	.	.	.	.	.	.
.	6	8a\J	8ff#X\J	.	.	.	.	.	.	.	.	.	.
=29	=29	=29	=29	=29	=29	=29	=29	=29	=29	=29-	=29	=29-	=29
4G\	.	8b\L	4gg\	4rA	.	4r	.	4r	.	4ree	.	4r	4r
.	.	8g\J	.	.	.	.	.	.	.	.	.	.	.
!LO:TX:a:t=Tut	!	!	!	!	!	!	!	!	!	!	!	!	!
8c\L	.	8ee\L	8gg\L	8c\	il-	8c\	-il-	8g\	il-	8ee\	il-	8ee\L	8gg\L
8B\J	6	8dd\J	8gg\J	8B\	-luc	8d\	-luc	8g\	-luc	8dd\	-luc	8dd\J	8gg\
*	*	*	*	*	*ij	*	*	*	*	*	*ij	*	*
8c\L	.	8ee\L	8gg\L	8c\	il-	8c\	e-	8g\	e-	8ee\	il-	8ee\L	8ee\
8B\J	6	8dd\J	8gg\J	8B\	-luc	8d\	-nim	8g\	-nim	8dd\	-luc	8dd\J	8gg\J
*	*	*	*	*	*Xij	*	*	*	*	*	*Xij	*	*
!	!	!	!	!	!	!	!	!	!	!	!	!	!LO:LB:g=original
*	*	*	*	*	*	*	*ij	*	*	*	*	*	*
4A\	7	4cc\	8gg\L	4A\	e-	4A/	e-	4a\	e-	4cc\	e-	4cc\	8gg\L
.	6	.	8ff#X\J	.	.	.	.	.	.	.	.	.	8ff#X\J
=30	=30	=30	=30	=30	=30	=30	=30	=30	=30	=30	=30	=30	=30
4G\	.	4b\	4gg\	4G\	-nim	4B\	-nim	4d\	-nim	4b\	-nim	4g/	4gg\
*	*	*	*	*	*	*	*Xij	*	*	*	*	*	*
!	!	!	!LO:LB:g=original	!	!	!	!	!	!	!	!	!	!
*clefC4	*	*	*	*	*	*	*	*	*	*	*	*	*
8G/L	.	8gg\L	8b\L	4rF	.	8G/	as-	4r	.	8b\	aſ-	8g/L	8gg\L
8A/J	.	8gg\J	8cc\J	.	.	8A/	-cen-	.	.	8cc\	-cen-	8cc/J	8gg\J
8B\L	6	2gg\	8dd\L	2rF	.	8B\L	-de-	2rB	.	8dd\L	-de-	8dd\L	2gg\
16A\L	.	.	16cc\L	.	.	16A\L	.	.	.	16cc\L	.	16cc\L	.
16B\JJ	.	.	16dd\JJ	.	.	16B\JJ	.	.	.	16dd\JJ	.	16dd\JJ	.
8G/L	.	.	8b\L	.	.	8G\L	.	.	.	8b\L	.	8g\L	.
16A/L	.	.	16cc\L	.	.	16A\L	.	.	.	16cc\L	.	16cc\L	.
16B/JJ	.	.	16dd\JJ	.	.	16B\JJ	.	.	.	16dd\JJ	.	16dd\JJ	.
!	!	!	!	!	!	!	!	!LO:LB:g=original	!	!	!	!	!
=31	=31	=31	=31	=31	=31	=31	=31	=31	=31	=31	=31	=31	=31
4c\	.	4gg\	8ee\L	4rF	.	8c\	-runt	4r	.	8ee\	.	8ee\L	4gg\
.	.	.	8ee\J	.	.	8c\	tri-	.	.	8ee\	-runt	8cc\	.
!LO:LB:g=original	!	!	!	!	!	!	!	!	!	!	!	!	!
*clefF4	*	*	*	*	*	*	*	*	*	*	*	*	*
8C/L	.	8ee\L	8gg\L	8C/	as-	2c\	-bus	8e\	As-	2ee\	tri-	8ee\	8gg\L
8D/J	.	8ee\J	8ff\J	8D/	-cen-	.	.	8f\	-cen-	.	.	8cc\J	8ff\J
!	!	!	!	!LO:LB:g=original	!	!	!	!	!	!	!	!	!
8E\L	.	2ee\	4ee\	8E\L	-de-	.	.	8g\L	-de-	.	.	4cc\	4ee\
16D\L	.	.	.	16D\L	.	.	.	16f\L	.	.	.	.	.
16E\JJ	.	.	.	16E\JJ	.	.	.	16g\JJ	.	.	.	.	.
*	*	*	*	*	*	*	*ij	*	*	*	*	*	*
8C/L	.	.	8ee\L	8C/L	.	4c\	tri-	8e\L	.	4ee\	-buſ	8gg\L	8ee\L
16D/L	.	.	8dd\J	16D/L	.	.	.	16f\L	.	.	.	8gg\J	8dd\J
16E/JJ	.	.	.	16E/JJ	.	.	.	16g\JJ	.	.	.	.	.
!	!	!LO:LB:g=original	!	!	!	!	!	!	!	!	!LO:LB:g=original	!	!
=32	=32	=32	=32	=32	=32	=32	=32	=32	=32	=32	=32	=32	=32
*	*	*	*	*	*	*	*	*	*	*	*ij	*	*
4F\	.	4cc\	8cc\L	8F\	.	4A\	-bus	8a\	.	4cc\	tri-	4ff\	4cc\
.	.	.	8ff\J	8F\	-runt	.	.	8a\	-runt	.	.	.	.
4E\	6	4ee\	4gg\	8E\	tri-	4c\	tri-	8e\	tri-	4ee\	-buſ	4gg\	4ee\
.	.	.	.	8E\	-bus	.	.	8e\	-bus	.	.	.	.
*	*	*	*	*	*ij	*	*	*	*ij	*	*	*	*
8F\L	.	8b\L	8aa\L	8F\	tri-	4c\	-bus	8f\	tri-	8a\	tri-	8aa\L	8cc\L
*	*	*	*	*	*	*	*Xij	*	*	*	*	*	*
8D\J	.	8cc\J	8ee\J	8C/	-bus	.	.	8e\	-bus	8cc\	-buſ	8gg\J	8ee\J
*	*	*	*	*	*Xij	*	*	*	*Xij	*	*Xij	*	*
!	!	!	!	!	!	!	!	!	!	!LO:LB:g=original	!	!	!
4G\	.	4b\	4dd\	8.G\	Do-	8d\	Do-	8.g\	Do-	8b\	Do-	4gg\	4dd\
.	.	.	.	.	.	8d\	-mi	.	.	8b\	-mi	.	.
.	.	.	.	16GG/	-mi-	.	.	16g\	-mi-	.	.	.	.
=33	=33	=33	=33	=33	=33	=33	=33	=33	=33	=33	=33	=33	=33
4C/	.	4g/	4cc\	4C/	-ni	4e\	-ni	4g\	-ni	4cc\	-ni	4ee\	4cc\
!	!	!	!	!	!	!LO:LB:g=original	!	!	!	!	!	!	!
8c\L	.	4r	4r	4r	.	8c\	tes-	8g\	tes-	8ee\	tes-	4r	4r
8B\J	.	.	.	.	.	8B\	-ti-	8g\	-ti-	8dd\	-ti-	.	.
4c\	.	2rf	2ra	2rF	.	8.c\	-mo-	8.g\	-mo-	8ee\	-mo-	2r	2ra
.	.	.	.	.	.	.	.	.	.	8cc\	-ni-	.	.
.	.	.	.	.	.	16c\	-ni-	16g\	-ni-	.	.	.	.
4G\	.	.	.	.	.	4G/	-um	4g\	-um	(8dd\	-um	.	.
.	.	.	.	.	.	.	.	.	.	8b\)	.	.	.
=34	=34	=34	=34	=34	=34	=34	=34	=34	=34	=34	=34	=34	=34
8d\L	.	2ra	2ra	2rF	.	8d\L	Is-	8f#X\L	Is-	8a\L	I-	1r	1rcc
8c\J	.	.	.	.	.	8c\J	.	8g\J	.	8b\J	.	.	.
!LO:TX:t=P:problem:mixed beam	!	!	!	!	!	!	!	!	!	!	!	!	!
8d\L	.	.	.	.	.	8.d\	-ra-	8g\	.	8.a\	.	.	.
!	!	!	!	!	!	!	!	!LO:LB:g=original	!	!	!	!	!
8D/J	.	.	.	.	.	.	.	8f#\	-ra-	.	.	.	.
.	.	.	.	.	.	16D/	.	.	.	16b\	-sra-	.	.
4G\	.	8r	8r	8rF	.	8G/	-el	8g\	-el	8b\	-el	.	.
.	.	8b\L	8dd\L	8G\	ad	8d\	ad	8g\	ad	8b\	ad	.	.
8G\L	.	8b\	8dd\	8G\	Con-	8d\	Con-	8g\	con-	8b\	Con-	.	.
8D\J	#	8a\J	8dd\J	8D/	-fi-	8d\	-fi-	8f#\	-fi-	8a\	-fi-	.	.
=35	=35	=35	=35	=35	=35	=35	=35	=35	=35	=35	=35	=35-	=35-
8G\L	.	8g\L	8b\L	8G\	-ten-	8d\	-ten-	8g\	-ten-	8b\	-ten-	8r	8r
8G\	.	8dd\	8gg\	8G\	-du(m)	8d\	-dum	8g\	-dum	8b\	-du(m)	8dd\L	8gg\L
8D\	.	8ee\	8gg\	4rG	.	4ryy	.	4r	.	4r	.	8ee\	8gg\
8G\J	.	8dd\J	8gg\J	.	.	.	.	.	.	.	.	8dd\J	8gg\J
!LO:TX:t=P:problem:mixed beam	!	!	!	!	!	!	!	!	!	!	!	!	!
8C/L	.	8cc\L	8ee\L	8rG	.	8r	.	8r	.	8rdd	.	8cc\L	8ee\L
8c\	.	8cc\	8ee\J	8c\	ad	8e\	ad	8g\	ad	8cc\	ad	8cc\J	8ee\J
8c\	.	8cc\	16gg\LL	8c\	Con-	8e\	Con-	8g\	Con-	8cc\	Con-	4r	4r
.	.	.	16ff\	.	.	.	.	.	.	.	.	.	.
8G\J	.	8b\J	16gg\	8G\	-fi-	8d\	-fi-	8g\	-fi-	8b\	-fi-	.	.
.	.	.	16aa\JJ	.	.	.	.	.	.	.	.	.	.
!	!	!	!	!LO:LB:g=original	!	!	!	!	!	!LO:LB:g=original	!	!	!
=36	=36	=36	=36	=36	=36	=36	=36	=36	=36	=36	=36	=36	=36
8c\L	.	8cc\L	8gg\L	8c\	-ten-	8e\	-ten-	8g\	-ten-	8cc\	-ten-	8r	8r
8c\J	.	8ee\	8gg\	8c\	-du(m)	8e\	-dum	8g\	-dum	8cc\	-du(m)	8ee\L	8gg\L
8A\L	.	8ff\	8aa\	4r	.	4r	.	4r	.	4r	.	8ff\	8aa\
8c\J	.	8ee\J	8gg\J	.	.	.	.	.	.	.	.	8ee\J	8gg\J
4F\	6 5	8cc\L	8ff\L	8F\	no-	8c\	no-	8a\	no-	8cc\	no-	8dd\L	8ff\L
.	.	16b\L	8ff\J	16F\	-mi-	16c\	-mi-	16a\	-mi-	16b\	-mi-	8dd\J	8ff\J
.	.	16a\JJ	.	16F\	-ni	16c\	-ni	16a\	-ni	16a\	-ni	.	.
!	!	!	!LO:LB:g=original	!	!	!	!	!	!	!	!	!	!
4G\	.	8b\L	4dd\	8.G\	Do-	8.B\	Do-	8.g\	Do-	8.dd\	Do-	4g/	4dd\
.	.	8b\J	.	.	.	.	.	.	.	.	.	.	.
.	.	.	.	16G\	-mi-	16B\	-mi-	16g\	-mi-	16dd\	-mi-	.	.
!	!	!	!	!	!	!LO:LB:g=original	!	!	!	!	!	!	!LO:LB:g=original
=37	=37	=37	=37	=37	=37	=37	=37	=37	=37	=37	=37	=37	=37
4C/	.	4g/	4ee\	4C/	-ni	4c\	-ni	4e\	-ni	4cc\	-ni	4e/	4cc\
8A\L	.	4r	8.aa\L	8A\	qui-	4r	.	4r	.	4r	.	4r	4r
8E\J	#	.	.	8E\	-a	.	.	.	.	.	.	.	.
.	.	.	16gg#X\Jk	.	.	.	.	.	.	.	.	.	.
!LO:LB:g=original	!	!	!	!	!	!	!	!	!	!	!	!	!
4C/	6	2ra	8aa\L	4C/	Il-	2rF	.	2r	.	2rcc	.	2ra	2ra
.	.	.	8ee\J	.	.	.	.	.	.	.	.	.	.
8AA/L	.	.	8cc\L	8AA/	-lic	.	.	.	.	.	.	.	.
8E/J	.	.	8ee\J	8E\	Se-	.	.	.	.	.	.	.	.
!	!	!	!	!	!	!	!	!LO:LB:g=original	!	!	!	!	!
=38	=38	=38-	=38	=38	=38	=38	=38	=38	=38	=38-	=38	=38	=38
8C/L	6	2r	8a/L	8C/	-de-	00r	.	00r	.	00r	.	00r	00r
8AA/J	.	.	8a/J	8AA/	-runt	.	.	.	.	.	.	.	.
8A\L	.	.	8aa\L	4rF	.	.	.	.	.	.	.	.	.
8G#X\J	.	.	8ee\J	.	.	.	.	.	.	.	.	.	.
8A\L	.	8aa\L	8cc\L	4r	.	.	.	.	.	.	.	.	.
8E\J	.	8gg#X\J	8ee\J	.	.	.	.	.	.	.	.	.	.
8C/L	6	8aa\L	8a/L	4E\	Se-	.	.	.	.	.	.	.	.
8E/J	.	8ee\J	8g#X/J	.	.	.	.	.	.	.	.	.	.
=39	=39	=39	=39	=39	=39	=39	=39	=39	=39	=39	=39	=39	=39
8AA/L	.	8cc\L	8a/L	1E	-des	.	.	.	.	.	.	.	.
8AA/J	.	8cc\J	8a/J	.	.	.	.	.	.	.	.	.	.
!	!	!LO:LB:g=original	!	!	!	!	!	!	!	!	!	!	!
4E\	#	8gg#X\L	8bb\L	.	.	.	.	.	.	.	.	.	.
.	.	8gg#\J	8bb\J	.	.	.	.	.	.	.	.	.	.
4E\	6 4	8aa\L	8ccc\L	.	.	.	.	.	.	.	.	.	.
.	.	8ccc\J	8aa\J	.	.	.	.	.	.	.	.	.	.
4E\	5 #3r	8gg#X\L	8bb\L	.	.	.	.	.	.	.	.	.	.
.	.	8bb\J	8gg#X\J	.	.	.	.	.	.	.	.	.	.
=40	=40	=40	=40	=40	=40	=40	=40	=40	=40	=40	=40	=40	=40
*	*	*	*	*	*ij	*	*	*	*	*	*	*	*
4E\	6 4	8aa\L	8aa\L	4E\	Se-	.	.	.	.	.	.	.	.
.	.	8aa\J	8aa\J	.	.	.	.	.	.	.	.	.	.
4E\	5 #	4r	4r	4E\	-des	.	.	.	.	.	.	.	.
*	*	*	*	*	*Xij	*	*	*	*	*	*	*	*
4C/	.	2ra	2ra	16C/LL	Se-	.	.	.	.	.	.	.	.
.	.	.	.	16D/	.	.	.	.	.	.	.	.	.
.	.	.	.	16C/	.	.	.	.	.	.	.	.	.
.	.	.	.	16D/JJ	.	.	.	.	.	.	.	.	.
!LO:TX:a:t=Tut	!	!	!	!	!	!	!	!	!	!	!	!	!
8r	.	.	.	16E\LL	.	.	.	.	.	.	.	.	.
.	.	.	.	16F\	.	.	.	.	.	.	.	.	.
8E\	.	.	.	16E\	.	.	.	.	.	.	.	.	.
.	.	.	.	16F\JJ	.	.	.	.	.	.	.	.	.
!	!	!	!	!LO:LB:g=original	!	!	!	!	!	!	!	!	!
=41	=41	=41	=41	=41	=41	=41	=41	=41	=41	=41	=41	=41	=41
4G\	.	16g/LL	16b\LL	8G\	.	.	.	.	.	.	.	.	.
.	.	16a/	16cc\	.	.	.	.	.	.	.	.	.	.
.	.	16g/	16b\	8G\	-des	.	.	.	.	.	.	.	.
.	.	16a/JJ	16cc\JJ	.	.	.	.	.	.	.	.	.	.
4r	.	16b\LL	16dd\LL	4r	.	.	.	.	.	.	.	.	.
.	.	16cc\	16ee\	.	.	.	.	.	.	.	.	.	.
.	.	16b\	16dd\	.	.	.	.	.	.	.	.	.	.
.	.	16cc\JJ	16ee\JJ	.	.	.	.	.	.	.	.	.	.
!	!	!	!LO:TX:a:t=P:problem:brak drugiej połowy t.41 i pierwszej połowy t.42, dopisane na podstawie Wydawnictwa Dawnej Muzyki Polskiej PWM i ukryte	!	!	!	!	!	!	!	!	!	!
8D\	.	8dd\L	8ff\Lyy	16D/LL	Sae-	.	.	.	.	.	.	.	.
.	.	.	.	16E/	.	.	.	.	.	.	.	.	.
8rG	.	8dd\J	8ff\Jyy	16D/	.	.	.	.	.	.	.	.	.
.	.	.	.	16E/JJ	.	.	.	.	.	.	.	.	.
8F\	.	4r	4ryy	16F\LL	.	.	.	.	.	.	.	.	.
.	.	.	.	16G\	.	.	.	.	.	.	.	.	.
8rA	.	.	.	16F\	.	.	.	.	.	.	.	.	.
.	.	.	.	16G\JJ	.	.	.	.	.	.	.	.	.
=42	=42	=42	=42	=42	=42	=42-	=42	=42-	=42	=42-	=42	=42	=42
4A\	.	16a/LL	16cc\Lyy	8A\	.	1r	.	0r	.	00r	.	00r	00r
.	.	16b/	16dd|yy	.	.	.	.	.	.	.	.	.	.
.	.	16a/	16cc\yy	8A\	-des	.	.	.	.	.	.	.	.
.	.	16b/JJ	16dd\Jyy	.	.	.	.	.	.	.	.	.	.
4rA	.	16cc\LL	16ee\Lyy	4r	.	.	.	.	.	.	.	.	.
.	.	16dd\	16ff\yy	.	.	.	.	.	.	.	.	.	.
.	.	16cc\	16ee\yy	.	.	.	.	.	.	.	.	.	.
.	.	16dd\JJ	16ff\Jyy	.	.	.	.	.	.	.	.	.	.
8E\L	6	8ee\L	8gg\L	8E\	in	.	.	.	.	.	.	.	.
8G\	.	8dd\J	8gg\J	8G\	iu-	.	.	.	.	.	.	.	.
8.E\	6	4cc\	16gg\LL	8.E\	-di-	.	.	.	.	.	.	.	.
.	.	.	16aa\	.	.	.	.	.	.	.	.	.	.
.	.	.	16gg\	.	.	.	.	.	.	.	.	.	.
16D\Jk	.	.	16ff\JJ	16D/	-ci-	.	.	.	.	.	.	.	.
=43	=43	=43	=43	=43	=43	=43-	=43	=43	=43	=43	=43	=43	=43
!LO:TX:t=P:problem:mixed beam	!	!	!	!	!	!	!	!	!	!	!	!	!
8C/L	.	16cc\LL	16ee\LL	8C/	-o	2r	.	.	.	.	.	.	.
.	.	16b\	16ff\	.	.	.	.	.	.	.	.	.	.
8c\J	.	16cc\	16ee\	8B\	Ju-	.	.	.	.	.	.	.	.
.	.	16dd\JJ	16ff\JJ	.	.	.	.	.	.	.	.	.	.
!	!	!	!LO:LB:g=original	!	!	!	!	!	!	!	!	!	!
4A\	.	4cc\	8gg\L	8.A\	-di-	.	.	.	.	.	.	.	.
.	.	.	8ff#X\J	.	.	.	.	.	.	.	.	.	.
.	.	.	.	16A\	-ci-	.	.	.	.	.	.	.	.
!LO:TX:a:t=Solo	!	!	!	!	!	!	!	!	!	!	!	!	!
4G\	7	4b\	4gg\	4G\	-o	8G/	Se-	.	.	.	.	.	.
.	6	.	.	.	.	8G/	-des	.	.	.	.	.	.
8F\L	.	4r	4r	4r	.	8A/	Su-	.	.	.	.	.	.
8D\J	6	.	.	.	.	8B\	-per	.	.	.	.	.	.
!LO:LB:g=original	!	!	!	!	!	!	!	!	!	!	!	!	!
=44	=44	=44	=44	=44	=44	=44	=44	=44-	=44	=44	=44	=44	=44
4C/	.	00r	00r	8C/	Se-	4.c\	Do-	2r	.	.	.	.	.
.	.	.	.	8C/	-des	.	.	.	.	.	.	.	.
8D/L	.	.	.	8D/	Su-	.	.	.	.	.	.	.	.
8E/J	.	.	.	8E/	-per	8B\	-mum	.	.	.	.	.	.
4F\	.	.	.	4.F\	do-	8A\	Da-	8c\	ſe-	.	.	.	.
.	.	.	.	.	.	8A\	-vid	8c\	-des	.	.	.	.
4E\	.	.	.	.	.	8B\	Su-	8d\	ſu-	.	.	.	.
.	.	.	.	8E\	-mum	8c\	-per	8e\	-per	.	.	.	.
!	!	!	!	!LO:LB:g=original	!	!	!	!	!	!	!	!	!
=45	=45	=45	=45	=45	=45	=45	=45	=45	=45	=45	=45	=45	=45
4D\	.	.	.	4D/	Da-	4.d\	Do-	4.f\	Do-	.	.	.	.
8r	.	.	.	4D/	-vit	.	.	.	.	.	.	.	.
8D\	.	.	.	.	.	8c\	.	8e\	.	.	.	.	.
4G\	.	.	.	8G\	do-	8B\	-mum	8d\	-mu(m)	.	.	.	.
.	.	.	.	8G\	-mu(m)	8d\	Da-	8g\	Da-	.	.	.	.
4A\	#	.	.	4A\	Da-	(4c#X\	-vid	(4e\	-vid	.	.	.	.
=46	=46	=46	=46	=46	=46	=46	=46	=46	=46	=46	=46	=46	=46
4D/	.	.	.	4D/	-vit	4d\)	.	4d\)	.	2a\	Ro-	00r	00r
8A\L	6	.	.	4rF	.	4r	.	2f\	Ro-	.	.	.	.
8B-X\J	.	.	.	.	.	.	.	.	.	.	.	.	.
4c\	.	.	.	2rF	.	2r	.	.	.	2g/	.	.	.
8G\L	6	.	.	.	.	.	.	4e\	.	.	.	.	.
8A\J	.	.	.	.	.	.	.	.	.	.	.	.	.
=47	=47	=47	=47	=47-	=47	=47	=47	=47	=47	=47	=47	=47	=47
!LO:SIC:s=4B-:v	!	!	!	!	!	!	!	!	!	!	!	!	!
4B\	6 4	.	.	00r	.	1r	.	(4e\	.	2f/	.	.	.
8F\L	.	.	.	.	.	.	.	2d\	.	.	.	.	.
8G\J	.	.	.	.	.	.	.	.	.	.	.	.	.
!LO:TX:t=P:problem:mixed beam	!	!	!	!	!	!	!	!	!	!	!	!	!
8A\L	4	.	.	.	.	.	.	.	.	2e/	-ga-	.	.
8G\	#	.	.	.	.	.	.	.	.	.	.	.	.
8A\	.	.	.	.	.	.	.	4c#X\)	-ga-	.	.	.	.
8AA/J	.	.	.	.	.	.	.	.	.	.	.	.	.
!	!	!LO:LB:g=original	!	!	!	!	!	!	!	!	!	!	!
=48	=48	=48	=48-	=48	=48	=48-	=48	=48	=48	=48	=48	=48	=48
4D/	.	4r	2aa\	.	.	4r	.	4d\	-te	4d/	-te	.	.
8A\L	5	2ff\	.	.	.	8A\	quae	4r	.	4r	.	.	.
8B-X\J	.	.	.	.	.	8B-X\	ad	.	.	.	.	.	.
!	!	!	!	!	!	!LO:LB:g=original	!	!	!	!	!	!	!
4c\	6 4	.	2gg\	.	.	8c\	pa-	2r	.	2rf	.	.	.
.	.	.	.	.	.	8c\	-cem	.	.	.	.	.	.
*	*	*	*	*	*	*	*ij	*	*	*	*	*	*
8G\L	6 -	4ee\	.	.	.	8G/	quae	.	.	.	.	.	.
8A\J	.	.	.	.	.	8A/	ad	.	.	.	.	.	.
!	!	!	!	!	!	!	!	!LO:LB:g=original	!	!	!	!	!
=49	=49	=49	=49	=49	=49	=49	=49	=49	=49	=49	=49	=49	=49
4B-X\	6 4	4ee\	4ff\	.	.	8B-X\	pa-	2f\	Ro-	4rcc	.	.	.
.	.	.	.	.	.	8B-\	-cem	.	.	.	.	.	.
*	*	*	*	*	*	*	*Xij	*	*	*	*	*	*
8F\L	.	2dd\	8dd\L	.	.	8F/	Sunt	.	.	4dd\	ro-	.	.
8G\J	.	.	8gg\J	.	.	8G/	Je-	.	.	.	.	.	.
!LO:TX:t=P:problem:mixed beam	!	!	!	!	!	!	!	!	!	!	!	!	!
8A\L	6 4	.	2ee\	.	.	8A/L	-ru-	2e\	-ga-	(4dd\	-ga-	.	.
8G\	.	.	.	.	.	8G/J	.	.	.	.	.	.	.
8A\	4	4cc#X\	.	.	.	8.A/	-ſa-	.	.	4cc#X\)	.	.	.
8AA/J	#	.	.	.	.	.	.	.	.	.	.	.	.
.	.	.	.	.	.	(16A/	-lem	.	.	.	.	.	.
=50	=50	=50	=50	=50	=50	=50	=50	=50	=50	=50	=50	=50	=50
8D\L	.	8dd\L	4dd\	.	.	4D/)	.	4f#X\	-te	8dd\	-te	00r	00r
8E\J	.	8dd\	.	.	.	.	.	.	.	8dd\	et	.	.
!LO:LB:g=original	!	!	!	!	!	!	!	!	!	!	!	!	!
8F#X\L	.	8dd\	8r	.	.	4r	.	4r	.	8dd\	a-	.	.
8D\J	.	8dd\J	8dd\	.	.	.	.	.	.	8dd\	-bun-	.	.
!	!	!	!	!	!	!	!	!	!	!LO:LB:g=original	!	!	!
8G\L	.	16b\LL	8dd\L	.	.	8r	.	2r	.	16b\LL	-dan-	.	.
.	.	16cc\	.	.	.	.	.	.	.	16cc\	.	.	.
8F#X\	.	16dd\	8dd\J	.	.	8d\	-et	.	.	16dd\	.	.	.
.	.	16cc\JJ	.	.	.	.	.	.	.	16cc\JJ	.	.	.
8G\	.	16b\LL	16b\LL	.	.	8d\	a-	.	.	16b\LL	.	.	.
.	.	16cc\	16cc\	.	.	.	.	.	.	16cc\	.	.	.
8D\J	.	16a\	16dd\	.	.	8d\	-bun-	.	.	16a\	.	.	.
.	.	16b\JJ	16cc\JJ	.	.	.	.	.	.	16b\JJ	.	.	.
=51	=51	=51	=51	=51-	=51	=51	=51	=51	=51	=51	=51	=51	=51
!	!	!	!	!	!	!	!	!	!	!LO:N:vis=4.	!	!	!
4G\	.	8g/L	8b/L	8rG	.	16B\LL	-dan-	2r	.	8.g/	.	.	.
.	.	.	.	.	.	16c\	.	.	.	.	.	.	.
.	.	8g/	8g/J	8G\	et	16d\	.	.	.	.	.	.	.
.	.	.	.	.	.	16c\JJ	.	.	.	16g/	-ti-	.	.
8r	.	8g/	16gg\LL	8G\	a-	16B\LL	.	.	.	4g/	-a	.	.
.	.	.	16gg\	.	.	16c\	.	.	.	.	.	.	.
8G\	.	8b/J	16gg\	8G\	-bun-	16A\	.	.	.	.	.	.	.
.	.	.	16gg\JJ	.	.	16B\JJ	.	.	.	.	.	.	.
4E\	6	8cc\L	16gg\LL	16E\LL	-dan-	8.G/	.	8r	.	8cc\	a-	.	.
.	.	.	16ff\	16F\	.	.	.	.	.	.	.	.	.
.	.	8cc\J	16ee\	16G\	.	.	.	8g\	et	8cc\	-bun-	.	.
.	.	.	16dd\JJ	16F\JJ	.	16G/	-ti-	.	.	.	.	.	.
8r	.	4cc\	16cc\LL	16E\LL	.	4G/	-a	8g\	a-	8.cc\	-dan-	.	.
.	.	.	16dd\	16F\	.	.	.	.	.	.	.	.	.
8E\	6	.	16ee\	16D\	.	.	.	8g\	-bun-	.	.	.	.
.	.	.	16ff\JJ	16E\JJ	.	.	.	.	.	16cc\	-ti-	.	.
!	!	!	!	!	!	!LO:LB:g=original	!	!	!	!	!	!	!
=52	=52	=52	=52	=52	=52	=52	=52	=52	=52	=52	=52	=52	=52
4C/	.	4cc\	8ee\L	8C/	.	4c\	Di-	16e\LL	-dan-	4cc\	-a	.	.
.	.	.	.	.	.	.	.	16f\	.	.	.	.	.
.	.	.	8cc\	16C/	-ti-	.	.	16g\	.	.	.	.	.
.	.	.	.	16C/	-a	.	.	16f\JJ	.	.	.	.	.
8E\L	5	8cc\L	8gg\	8E\	di-	8A\	-li-	8e\	-ti-	8g/	di-	.	.
8F#X\J	6	8dd\J	8dd\J	8F#X\	-li-	8G/	-gen-	16d\	-a	8a\	-li-	.	.
.	.	.	.	.	.	.	.	16d\	di-	.	.	.	.
!LO:TX:t=P:problem:mixed beam	!	!	!	!	!	!	!	!	!	!	!	!	!
8G\L	.	8b\L	8gg\L	8G\	-gen-	4c\	-ti-	8g\	.	8b\	-gen-	.	.
8BB/J	.	8g\J	8g\J	8C/	-ti-	.	.	8e\	-li-	8g/	-ti-	.	.
4D/	.	4f#X/	4dd\	4D/	-bus	4A/	-bus	8d\	-gen-	4f#X/	-bus	.	.
.	.	.	.	.	.	.	.	16d\	-ti-	.	.	.	.
.	.	.	.	.	.	.	.	16d\	-bus	.	.	.	.
!	!	!	!	!LO:LB:g=original	!	!	!	!	!	!	!	!	!
=53	=53	=53	=53	=53	=53	=53	=53	=53	=53	=53	=53	=53	=53
!	!	!	!	!	!	!LO:TX:a:t=P:problem:nuta niewyraźna	!	!	!	!	!	!	!
4GG/	.	4g/	4dd\	4GG/	te'	4c\	te	4d\	te	4g/	te	.	.
8G\L	.	8gg\L	8b/L	8G\	fi-	8d\	fi-	8g\	fi-	8b\	fi-	.	.
8F#X\J	6	8aa\J	8a/J	8F#X\	-at	8d\	-at	8d\	-at	8a\	-at	.	.
!	!	!	!	!	!	!	!	!LO:SIC:custos na końcu linijki:v	!	!	!	!	!
!	!	!	!LO:LB:g=original	!	!	!	!	!LO:PB:g=original	!	!	!	!	!
*	*	*	*	*	*ij	*	*ij	*	*	*	*	*	*
8G\L	.	8gg\L	8b/L	8G\	fi-	8d\	fi-	8g\	fi-	8b\	fi-	.	.
8D\J	#	8aa\J	8a/	8D/	-at	8d\	-at	8f#X\	-at	8a\	-at	.	.
*	*	*	*	*	*Xij	*	*Xij	*	*	*	*	*	*
!	!	!LO:TX:t=P:problem:mixed beam	!	!	!	!	!	!	!	!	!	!	!
4G\	.	8gg\L	8b/	4G\	pax	4d\	pax	4g\	pax	4b\	pax	.	.
.	.	8g/J	8g/J	.	.	.	.	.	.	.	.	.	.
!	!	!LO:LB:g=original	!	!	!	!	!	!	!	!LO:LB:g=original	!	!	!
=54	=54	=54	=54	=54	=54	=54	=54	=54	=54	=54	=54	=54-	=54
*	*	*	*	*	*	*	*	*	*ij	*	*	*	*
8c\L	.	8ee\L	8gg\L	8c\	fi-	8e\	fi-	8g\	fi-	8ee\	fi-	8r	8gg\L
8B\	6	8dd\	8gg\	8B\	-at	8B\	-at	8g\	-at	8dd\	-at	8dd\L	8gg\
*	*	*	*	*	*ij	*	*ij	*	*	*	*ij	*	*
8c\	.	8ee\	8gg\	8c\	fi-	8e\	fi-	8g\	fi-	8ee\	fi-	8ff\	8gg\
8G\J	.	8dd\J	8gg\J	8G\	-at	8B\	-at	8g\	-at	8dd\	-at	8dd\J	8gg\J
*	*	*	*	*	*Xij	*	*Xij	*	*	*	*Xij	*	*
4c\	.	8cc\L	8gg\L	4c\	pax	4c\	pax	4e\	pax	4cc\	pax	8cc\L	8gg\L
*	*	*	*	*	*	*	*	*	*Xij	*	*	*	*
.	.	8g\J	8ee\J	.	.	.	.	.	.	.	.	8cc\J	8ee\J
4E\	6	4r	4r	4rA	.	4r	.	4r	.	(16cc\LL	in	4r	4r
.	.	.	.	.	.	.	.	.	.	16dd\JJ)	.	.	.
.	.	.	.	.	.	.	.	.	.	(16cc\LL	vir-	.	.
.	.	.	.	.	.	.	.	.	.	16b\JJ)	.	.	.
=55	=55	=55	=55	=55-	=55	=55	=55	=55	=55	=55	=55	=55	=55
!	!	!	!	!LO:TX:a:t=1	!	!	!	!	!	!	!	!	!
4F\	.	1r	1r	1rA	.	1r	.	(16f\LL	In	4a\	-tu-	1rcc	1r
.	.	.	.	.	.	.	.	16g\JJ)	.	.	.	.	.
.	.	.	.	.	.	.	.	(16f\LL	vir-	.	.	.	.
.	.	.	.	.	.	.	.	16e\JJ)	.	.	.	.	.
4G\	.	.	.	.	.	.	.	8d\	-tu-	8b\	-te	.	.
.	.	.	.	.	.	.	.	8g\	-te	8b\	vir-	.	.
8A\L	.	.	.	.	.	.	.	8e\L	tu-	8cc\	-tu-	.	.
8F\J	6	.	.	.	.	.	.	(16f\L	.	8cc\	-te	.	.
.	.	.	.	.	.	.	.	16e\JJ	.	.	.	.	.
!LO:TX:t=P:problem:mixed beam	!	!	!	!	!	!	!	!	!	!	!	!	!
8G\L	.	.	.	.	.	.	.	(<4d\	-a	4b\	tu-	.	.
8GG/J	.	.	.	.	.	.	.	.	.	.	.	.	.
!LO:LB:g=original	!	!	!	!	!	!	!	!	!	!	!LO:LB:g=original	!	!
=56	=56	=56	=56-	=56-	=56	=56-	=56	=56	=56	=56	=56	=56	=56-
!LO:TX:b:t=Tut	!	!	!	!	!	!	!	!	!	!	!	!	!
4C/	.	4r	2ra	4rF	.	4r	.	4e\))	.	4cc\	-a	4r	4r
8G\L	.	8gg\L	.	8G\	Fi-	8B\	fi-	8g\	fi-	4r	.	8dd\L	8gg\L
8F#X\J	.	8aa\J	.	8F#X\	-at	8c\	-at	8d\	-at	.	.	8dd\	8aa\J
*	*	*	*	*	*ij	*	*	*	*	*	*	*	*
8G\L	.	8gg\L	8r	8G\	fi-	8B\	fi-	8g\	fi-	4dd\	et	8dd\	8gg\L
8D\J	.	8aa\	8dd\L	8D/	-at	8A\	-at	8f#X\	-at	.	.	8dd\J	8aa\
*	*	*	*	*	*Xij	*	*	*	*	*	*	*	*
4G\	.	8bb\	8dd\	4G\	pax	4G/	pax	4g\	pax	8dd\	a-	4dd\	8bb\
.	.	8gg\J	8dd\J	.	.	.	.	.	.	8dd\	-bun-	.	8gg\J
!	!	!	!	!	!	!LO:PB:g=original	!	!	!	!	!	!	!
=57	=57	=57	=57	=57	=57	=57	=57	=57	=57	=57	=57	=57	=57
8G\L	.	8bb\L	16b\LL	2rF	.	8r	.	1r	.	16b\LL	-dan-	2ra	2ra
.	.	.	16cc\	.	.	.	.	.	.	16cc\	.	.	.
8F#X\J	.	8aa\	16dd\	.	.	8d\	et	.	.	16dd\	.	.	.
.	.	.	16cc\JJ	.	.	.	.	.	.	16cc\JJ	.	.	.
8G\L	.	8gg\	16b\LL	.	.	8d\	a-	.	.	16b\LL	.	.	.
.	.	.	16cc\	.	.	.	.	.	.	16cc\	.	.	.
8D\J	.	8aa\J	16a\	.	.	8d\	-bun-	.	.	16a\	.	.	.
.	.	.	16b\JJ	.	.	.	.	.	.	16b\JJ	.	.	.
4GG/	.	8bb\L	8g/L	8rc	.	16B\LL	-dan-	.	.	8.g/	.	8r	8r
.	.	.	.	.	.	16c\	.	.	.	.	.	.	.
.	.	8gg\J	8g/	8G\	et	16d\	.	.	.	.	.	8g/L	8dd\L
.	.	.	.	.	.	16c\JJ	.	.	.	16g/	-ti-	.	.
8r	.	8r	8g/	8G\	a-	16B\LL	.	.	.	8g/	-a	8g/	8dd\
.	.	.	.	.	.	16c\	.	.	.	.	.	.	.
8G\	.	8gg\	8g/J	8G\	-bun-	16A\	.	.	.	8g/	in	8g/J	8dd\J
.	.	.	.	.	.	16B\JJ	.	.	.	.	.	.	.
!	!	!	!	!	!	!	!	!	!	!LO:LB:g=original	!	!	!
=58	=58	=58	=58	=58	=58	=58	=58	=58-	=58	=58	=58	=58	=58
4E\	.	8gg\L	8cc\L	16E\LL	-dan-	8.G/	-ti-	8r	.	8.cc\	tur-	4cc\	8ee\L
.	.	.	.	16F\	.	.	.	.	.	.	.	.	.
.	.	8gg\J	8cc\J	16G\	.	.	.	8g\	et	.	.	.	8ee\J
.	.	.	.	16F\JJ	.	16G/	.	.	.	16cc\	-ri-	.	.
!	!	!	!	!LO:LB:g=original	!	!	!	!LO:LB:g=original	!	!	!	!	!
8r	.	16gg\LL	8cc\L	16E\LL	.	8G/	-a	8g\	a-	4cc\	-buſ	4cc\	4ee\
.	.	16ff\	.	16F\	.	.	.	.	.	.	.	.	.
8E\	.	16ee\	8cc\J	16D\	.	8G/	et	8g\	-bun-	.	.	.	.
.	.	16dd\JJ	.	16E\JJ	.	.	.	.	.	.	.	.	.
4C/	.	8ee\L	8r	8.C/	.	8c\	a-	16e\LL	-dan-	8ree	.	8r	8r
.	.	.	.	.	.	.	.	16f\	.	.	.	.	.
.	.	8cc\J	8gg\L	.	.	8e\	-bun-	16g\	.	8gg\	et	8ee\L	8gg\L
.	.	.	.	16C/	-ti-	.	.	16f\JJ	.	.	.	.	.
8C/L	.	8gg\L	8gg\	8C/	-a	8.c\	-dan-	16e\LL	.	8gg\	a-	8ee\	8gg\
.	.	.	.	.	.	.	.	16f\	.	.	.	.	.
8E/J	6	8ee\J	8gg\J	8E\	in	.	.	16d\	.	8gg\	-bun-	8cc\J	8gg\J
.	.	.	.	.	.	16B\	-ti-	16e\JJ	.	.	.	.	.
=59	=59	=59	=59	=59	=59	=59	=59	=59	=59	=59	=59	=59	=59
4F\	.	16aa\LL	16ff\LL	8.F\	tur-	8A\	-a'	8.c\	-ti-	8.ff\	-dan-	16ff\LL	8aa\L
.	.	16aa\	16ff\	.	.	.	.	.	.	.	.	16ff\	.
.	.	16aa\	16ff\	.	.	8B\	in	.	.	.	.	16ff\	8aa\
.	.	16aa\JJ	16ff\JJ	16F\	.	.	.	16c\	-a	16ff\	-ti-	16ff\JJ	.
4C/	.	8gg\L	8ee\L	4BB/	-ri-	8c\	tur-	8c\	in	8ee\	-a	8ee\L	8aa\
.	.	8gg\J	8ee\	.	.	16c\	-ri-	8e\	.	8ee\	in	8ee\	8aa\J
.	.	.	.	.	.	16c\	-bus	.	.	.	.	.	.
4F\	6 5	8ff\L	8dd\	4F\	-bus	4c\	.	8a\	tur-	8dd\	tur-	8dd\	8gg\L
.	.	8ff\J	8dd\J	.	.	.	.	16a\	-ri-	16dd\	-ri-	8cc\J	8gg\
.	.	.	.	.	.	.	.	16a\	-bus	16dd\	-bus	.	.
!	!	!LO:LB:g=original	!LO:LB:g=original	!	!	!	!	!	!	!	!	!	!
4G\	.	8dd\L	4dd\	4G\	tu-	4B\	tu-	4g\	tu-	4dd\	tu-	4g/	8ff\
.	.	8dd\J	.	.	.	.	.	.	.	.	.	.	8ff\J
!	!	!	!	!	!	!	!	!	!	!	!	!	!LO:LB:g=original
=60	=60	=60	=60	=60	=60	=60	=60	=60	=60	=60	=60	=60	=60
4C/	.	4ee\	4cc\	4C/	-is	4c\	-is	4e\	-is	4ee\	-us	4e/	4cc\
8A\L	.	4r	4r	4r	.	4r	.	4r	.	8cc\	p(ro)-	4r	4r
8G#X\J	6	.	.	.	.	.	.	.	.	8b\	-pter	.	.
8A\L	.	2r	2ra	2r	.	2r	.	2r	.	8cc\	fra-	2ra	2ra
8F\J	.	.	.	.	.	.	.	.	.	8a\	-tres	.	.
4D/	.	.	.	.	.	.	.	.	.	4b\	me-	.	.
!	!	!	!	!	!	!LO:LB:g=original	!	!	!	!	!	!	!
=61	=61	=61-	=61	=61-	=61	=61	=61	=61	=61	=61	=61	=61	=61
8E\L	.	0r	0ra	00r	.	00r	.	00r	.	8b\	-os	00r	00r
8G#X\J	.	.	.	.	.	.	.	.	.	8ee\	et	.	.
!	!	!	!	!	!	!	!	!	!	!LO:LB:g=original	!	!	!
8A\L	.	.	.	.	.	.	.	.	.	16cc\LL	pro-	.	.
.	.	.	.	.	.	.	.	.	.	16dd\	.	.	.
16A\L	.	.	.	.	.	.	.	.	.	16cc\	.	.	.
16G#\JJ	.	.	.	.	.	.	.	.	.	16b\JJ	.	.	.
!LO:PB:g=original	!	!	!	!	!	!	!	!	!	!	!	!	!
8G#\L	.	.	.	.	.	.	.	.	.	8a\L	.	.	.
8D\J	.	.	.	.	.	.	.	.	.	16dd\L	.	.	.
.	.	.	.	.	.	.	.	.	.	16cc\JJ	.	.	.
8G#\L	.	.	.	.	.	.	.	.	.	16b\LL	.	.	.
.	.	.	.	.	.	.	.	.	.	16cc\	.	.	.
16G#\L	.	.	.	.	.	.	.	.	.	16b\	.	.	.
16F#X\JJ	.	.	.	.	.	.	.	.	.	16a\JJ	.	.	.
=62	=62	=62	=62	=62	=62	=62	=62	=62	=62	=62	=62	=62	=62
8E\L	.	.	.	.	.	.	.	.	.	8.g/	.	.	.
8F#X\	.	.	.	.	.	.	.	.	.	.	.	.	.
.	.	.	.	.	.	.	.	.	.	16f#X/	-xi-	.	.
8G\	.	.	.	.	.	.	.	.	.	8e/	-mos	.	.
8A\J	.	.	.	.	.	.	.	.	.	8ee\	-et	.	.
8B\L	#	.	.	.	.	.	.	.	.	8dd#X\	pro-	.	.
8c\	.	.	.	.	.	.	.	.	.	16dd#\	-xi-	.	.
.	.	.	.	.	.	.	.	.	.	(16ee\	-mos	.	.
8A\	.	.	.	.	.	.	.	.	.	&(8ee\L	me-	.	.
8B\J	#	.	.	.	.	.	.	.	.	8dd#\J&))	.	.	.
=63	=63	=63	=63-	=63	=63	=63	=63	=63	=63	=63	=63	=63	=63
4E\	.	4r	4r	.	.	.	.	.	.	4ee\	-os	.	.
8E\L	.	8b\L	8gg\L	.	.	.	.	.	.	4rdd	.	.	.
8D#X\J	6	8b\J	8ff#X\	.	.	.	.	.	.	.	.	.	.
8E\L	.	8b\L	8gg\	.	.	.	.	.	.	2rcc	.	.	.
8C\J	.	8ee\J	8ee\J	.	.	.	.	.	.	.	.	.	.
4AA/	.	8.cc\L	16ff#X\LL	.	.	.	.	.	.	.	.	.	.
.	.	.	16gg\	.	.	.	.	.	.	.	.	.	.
.	.	.	16ff#\	.	.	.	.	.	.	.	.	.	.
.	.	16cc\Jk	16ee\JJ	.	.	.	.	.	.	.	.	.	.
=64	=64	=64	=64	=64	=64	=64	=64	=64	=64	=64-	=64	=64	=64
8BB/L	.	4b\	8dd#X\L	.	.	.	.	.	.	00r	.	.	.
8D#X/J	.	.	8bb\J	.	.	.	.	.	.	.	.	.	.
8E\L	.	8b\L	16gg\LL	.	.	.	.	.	.	.	.	.	.
.	.	.	16aa\	.	.	.	.	.	.	.	.	.	.
16E\L	.	8b\J	16gg\	.	.	.	.	.	.	.	.	.	.
16D#\JJ	.	.	16ff#X\JJ	.	.	.	.	.	.	.	.	.	.
8C/L	.	4cc\	8ee\L	.	.	.	.	.	.	.	.	.	.
8AA/J	.	.	16aa\L	.	.	.	.	.	.	.	.	.	.
.	.	.	16gg\JJ	.	.	.	.	.	.	.	.	.	.
8D#/L	#	8a\L	16ff#X\LL	.	.	.	.	.	.	.	.	.	.
.	.	.	16gg\	.	.	.	.	.	.	.	.	.	.
16D#/L	.	8a\J	16ff#\	.	.	.	.	.	.	.	.	.	.
16C/JJ	.	.	16ee\JJ	.	.	.	.	.	.	.	.	.	.
=65	=65	=65	=65	=65-	=65	=65-	=65	=65-	=65	=65	=65	=65-	=65
8BB/L	.	4b\	8dd\L	1rD	.	2r	.	1r	.	.	.	1r	00r
8GG/J	.	.	16gg\L	.	.	.	.	.	.	.	.	.	.
.	.	.	16ff#X\JJ	.	.	.	.	.	.	.	.	.	.
8C/L	.	8cc\L	8ee\L	.	.	.	.	.	.	.	.	.	.
8AA/J	.	8ee\	16aa\L	.	.	.	.	.	.	.	.	.	.
.	.	.	16gg\JJ	.	.	.	.	.	.	.	.	.	.
8D/L	#	8dd\	8ff#X\L	.	.	4r	.	.	.	.	.	.	.
8BB/J	6	8gg\J	16bb\L	.	.	.	.	.	.	.	.	.	.
.	.	.	16aa\JJ	.	.	.	.	.	.	.	.	.	.
!LO:LB:g=original	!	!	!	!	!	!	!	!	!	!	!	!	!
4D/	.	4ff#X\	4aa\	.	.	8r	.	.	.	.	.	.	.
.	.	.	.	.	.	8d\	lo-	.	.	.	.	.	.
=66	=66	=66	=66	=66-	=66	=66	=66	=66-	=66	=66	=66	=66	=66
!LO:TX:t=P:problem:mixed beam	!	!	!	!	!	!	!	!	!	!	!	!	!
8GG/L	.	4gg\	4gg\	8rG	.	16B\LL	-quae-	4r	.	.	.	1r	.
.	.	.	.	.	.	16c\	.	.	.	.	.	.	.
8G\J	.	.	.	8G\	lo-	16B\	.	.	.	.	.	.	.
.	.	.	.	.	.	16A\JJ	.	.	.	.	.	.	.
4E\	6	4r	4r	16E\LL	-quae-	16G\LL	.	8r	.	.	.	.	.
.	.	.	.	16F\	.	16A\	.	.	.	.	.	.	.
.	.	.	.	16E\	.	16B\	.	8g\	lo-	.	.	.	.
.	.	.	.	16D\JJ	.	16G\JJ	.	.	.	.	.	.	.
4C/	.	2r	2ra	8C/	.	16c\LL	.	16e\LL	-quae-	.	.	.	.
.	.	.	.	.	.	16d\	.	16f\	.	.	.	.	.
.	.	.	.	8C/	-bar	16c\	.	16e\	.	.	.	.	.
.	.	.	.	.	.	16B\JJ	.	16d\JJ	.	.	.	.	.
4F\	.	.	.	4F\	pa-	16A\LL	.	16c\LL	.	.	.	.	.
.	.	.	.	.	.	16B\	.	16d\	.	.	.	.	.
.	.	.	.	.	.	16c\	.	16e\	.	.	.	.	.
.	.	.	.	.	.	16A\JJ	.	16c\JJ	.	.	.	.	.
!	!	!	!	!	!	!	!	!LO:LB:g=original	!	!	!	!	!
=67	=67	=67-	=67	=67	=67	=67	=67	=67	=67	=67	=67	=67	=67
4D\	.	0r	0r	4D/	-cem	16d\LL	.	16f\LL	.	.	.	1r	.
.	.	.	.	.	.	16e\	.	16g\	.	.	.	.	.
.	.	.	.	.	.	16d\	.	16f\	.	.	.	.	.
.	.	.	.	.	.	16c\JJ	.	16e\JJ	.	.	.	.	.
!	!	!	!	!LO:PB:g=original	!	!	!	!	!	!	!	!	!
4G\	.	.	.	4G\	.	16B\LL	.	16d\LL	.	.	.	.	.
.	.	.	.	.	.	16c\	.	16e\	.	.	.	.	.
.	.	.	.	.	.	16d\	.	16f\	.	.	.	.	.
.	.	.	.	.	.	16B\JJ	.	16d\JJ	.	.	.	.	.
4E\	.	.	.	8E\	.	8e\	-bar	8g\	-bar	.	.	.	.
.	.	.	.	8E\	lo-	8e\	.	8g\	.	.	.	.	.
4A\	.	.	.	8A\	-quae-	8r	.	8r	.	.	.	.	.
.	.	.	.	8A\	-bar	8c\	-lo-	8e\	lo-	.	.	.	.
=68	=68	=68	=68	=68	=68	=68	=68	=68	=68	=68-	=68	=68	=68
4F\	.	.	.	4F\	pa-	8f\	-quae-	8a\	-quae-	1ra	.	1r	.
.	.	.	.	.	.	8f\	-bar	8a\	-bar	.	.	.	.
!	!	!	!	!	!	!LO:TX:a:t=P:problem:przesunięte łuki	!	!	!	!	!	!	!
4D\	.	.	.	4D/	-cem	(16f\LL	pa-	(16a\LL	pa-	.	.	.	.
.	.	.	.	.	.	16e\JJ)	.	16g#X\JJ)	.	.	.	.	.
.	.	.	.	.	.	(16d\LL	-cem	(16a\LL	-cem	.	.	.	.
.	.	.	.	.	.	16c\JJ)	.	16b\JJ)	.	.	.	.	.
4E\	#	.	.	4E\	de	4c\	de	4g#X\	de	.	.	.	.
4AA/	#	.	.	4C/	te	4c#X\	te	4a\	te	.	.	.	.
!	!	!	!LO:LB:g=original	!	!	!LO:LB:g=original	!	!	!LO:PB:g=original	!	!	!	!
=69	=69	=69	=69	=69	=69	=69	=69	=69	=69	=69-	=69	=69	=69
8F\L	.	8cc\L	8cc\L	8F\	p(ro)-	(8A\	p(ro)-	8c\	p(ro)-	8a\	Prop-	8cc\L	8cc\L
8E\	6	8cc\	8gg\	8E\	-pter	8c\)	-pter	8c\	-pter	8g/	-ter	8cc\J	8g\
8F\	.	8cc\	8ff\	8F\	Do-	8A/	do-	8c\	Do-	8a\	do-	16cc\LL	8cc\
.	.	.	.	.	.	.	.	.	.	.	.	16cc\	.
8E\J	6	8cc\J	8gg\J	8E\	-mu(m)	8G/	-mu(m)	8e\	-mum	8cc\	-mum	16cc\	8dd\J
.	.	.	.	.	.	.	.	.	.	.	.	16cc\JJ	.
!	!	!LO:LB:g=original	!	!	!	!	!	!	!	!	!	!	!
4D/	7	8dd\L	8cc\L	8.D/	Do-	8A/	Do-	8.f\	D(o-	8.cc\	Do-	8dd\L	8dd\L
.	6	8dd\J	8b\J	.	.	8F/	-mi-	.	.	.	.	8dd\J	8dd\
.	.	.	.	16D/	-mi-	.	.	16f\	-mi)-	16b\	-mi-	.	.
!	!	!	!	!	!	!	!	!	!	!	!	!LO:LB:g=original	!
4C/	.	4ee\	4cc\	4C/	-ni	4c\	-ni	4e\	-ni	4cc\	-ni	8ee\L	8ee\
!	!	!	!	!	!	!	!	!	!	!	!	!	!LO:SIC:s=8dd:v
.	.	.	.	.	.	.	.	.	.	.	.	8dd\J	8cc\J
=70	=70	=70	=70	=70	=70	=70	=70	=70	=70	=70	=70	=70	=70
8c\L	.	8ee\L	8gg\L	8c\	do-	8c\	Do-	8g\	Do-	8ee\	do-	8ee\L	8gg\L
8B\	6	8dd\	8gg\	8B\	-mu(m)	8d\	-mu(m)	8g\	-mum	8dd\	-mum	8dd\	8gg\
!	!	!	!	!	!	!	!	!LO:LB:g=original	!	!	!	!	!
8c\	.	8ee\	8gg\	8c\	De-	8c\	De-	8g\	De-	8ee\	De-	8ee\	8gg\
8B\J	6	8dd\J	8gg\J	8B\	-i	8d\	-i	8g\	-i	8dd\	-i	8dd\J	8gg\J
4A\	7	8cc\L	8gg\L	4A\	noſ-	4A\	noſt-	8e\L	no-	4cc\	noſ-	4cc\	8gg\L
.	6	8a\J	8ff#X\J	.	.	.	.	8c\J	.	.	.	.	8ff#X\J
4G\	.	8dd\L	8gg\L	8G\	-tri	8B\	-ri	8g\	-ſtri	8b\	-tri	4g/	4gg\
.	.	8dd\J	8gg\J	8G\	quae-	8B\	quae-	8d\	quae-	8dd\	quae-	.	.
!	!	!	!	!LO:LB:g=original	!	!	!	!	!	!	!	!	!
=71	=71	=71	=71	=71	=71	=71	=71	=71	=71	=71	=71	=71	=71
8E\L	6	8cc\L	8ee\L	8E\	-si-	8c\	-Si-	8g\	-si-	8ee\	-ſi-	4r	4r
8C\J	.	8cc\J	8ee\	8C/	-vi	8c\	-vi	8g\	-vi	8ee\	-vi	.	.
4G\	.	8g\L	8dd\	4rF	.	4r	.	4r	.	4rdd	.	8g/L	8dd\L
.	.	8g\J	8dd\J	.	.	.	.	.	.	.	.	8g/J	8dd\
8E\L	.	8cc\L	8ee\L	8rG	.	8r	.	8r	.	8ra	.	8cc\L	8ee\
8C\J	.	8ee\	8gg\	8c\	quae-	8c\	quae-	8e\	quae-	8e/	quae-	8ee\	8gg\J
!LO:LB:g=original	!	!	!	!	!	!	!	!	!	!	!	!	!
8A\L	.	8ff\	8aa\	8A\	-si-	8c\	-Si-	8a\	-si-	8cc\	-ſi-	8ff\	8aa\L
8F\J	.	8ff\J	8aa\J	8F\	-vi	8A\	-vi	8a\	-vi	8cc\	-vi	8ff\J	8aa\J
!	!	!	!	!	!	!	!	!	!	!LO:LB:g=original	!	!	!
=72	=72	=72	=72	=72	=72	=72	=72	=72	=72	=72	=72	=72	=72
8E\L	.	8gg\L	8gg\L	8E\L	bo-	8c\	bo-	8e\	bo-	8cc\	bo-	8gg\L	8gg\L
8F\J	.	8aa\J	8ff\J	8F\J	-na	8A\	-na	8a\	-na	8a\	-na	8aa\J	8ff\J
!LO:TX:t=P:problem:mixed beam	!	!	!	!	!	!	!	!	!	!	!	!	!
8G\L	.	4gg\	4dd\	4G\	ti-	4B\	ti-	4g\	ti-	4dd\	ti-	8gg\L	4dd\
8GG/J	.	.	.	.	.	.	.	.	.	.	.	16gg\L	.
.	.	.	.	.	.	.	.	.	.	.	.	16ff\JJ	.
!	!	!	!	!LO:TX:a:t=P:problem:pojedyńcza kreska taktowa	!	!	!	!	!	!LO:TX:a:t=P:problem:pojedyńcza kreska taktowa	!	!LO:TX:a:t=P:problem:kreska z obustronną repetycją	!LO:TX:a:t=P:problem:kreska z obustronną repetycją
2C/	.	2gg\	2ee\	2C/	-bi	2c\	-bi	2g\	-bi.	2cc\	-bi	2ee\	2cc\
!	!	!	!	!	!	!LO:LB:g=original	!	!	!	!	!	!	!
=73||	=73||	=73||	=73||	=73||	=73||	=73||	=73||	=73||	=73||	=73||	=73||	=73||	=73||
*M6/8	*	*M6/8	*M6/8	*M6/8	*	*M6/8	*	*M6/8	*	*M6/8	*	*M6/8	*M6/8
!LO:TX:b:t=Solo	!	!LO:TX:b:t=Gloria.	!	!	!	!	!	!	!	!	!	!LO:TX:b:t=Gloria	!LO:TX:b:t=Gloria
!	!	!LO:N:vis=0	!LO:N:vis=0	!LO:N:vis=00	!	!LO:N:vis=00	!	!LO:N:vis=2	!	!	!	!LO:N:vis=00	!LO:N:vis=00
4A\	.	1.r	1.r	0.r	.	0.r	.	4.r	.	16ee\LL	Glo-	0.r	0.r
.	.	.	.	.	.	.	.	.	.	16ff\	.	.	.
.	.	.	.	.	.	.	.	.	.	16ee\	.	.	.
.	.	.	.	.	.	.	.	.	.	16dd\	.	.	.
8A\	.	.	.	.	.	.	.	.	.	16cc\	.	.	.
.	.	.	.	.	.	.	.	.	.	16b\JJ	.	.	.
8F\	.	.	.	.	.	.	.	16a\LL	Glo-	8.cc\	.	.	.
.	.	.	.	.	.	.	.	16b-X\	.	.	.	.	.
4F\	.	.	.	.	.	.	.	16a\	.	.	.	.	.
.	.	.	.	.	.	.	.	16g\	.	16b\	-ri-	.	.
.	.	.	.	.	.	.	.	16f\	.	8a\	-a	.	.
.	.	.	.	.	.	.	.	16e\JJ	.	.	.	.	.
=74	=74	=74	=74	=74	=74	=74	=74	=74	=74	=74	=74	=74	=74
4D\	.	.	.	.	.	.	.	8.f\	-ri-	8.dd\	glo-	.	.
.	.	.	.	.	.	.	.	16e\	.	16cc\	-ri-	.	.
8G\	.	.	.	.	.	.	.	8d\	-a	8b\	-a	.	.
!	!	!	!	!	!	!	!	!LO:LB:g=original	!	!	!	!	!
4C/	.	.	.	.	.	.	.	16e\LL	Pa-	4cc\	Pat-	.	.
.	.	.	.	.	.	.	.	16d\	.	.	.	.	.
.	.	.	.	.	.	.	.	16e\	.	.	.	.	.
.	.	.	.	.	.	.	.	16f\	.	.	.	.	.
8C/	.	.	.	.	.	.	.	16g\	.	8b\	-ri	.	.
.	.	.	.	.	.	.	.	16e\JJ	.	.	.	.	.
=75	=75	=75-	=75	=75	=75	=75	=75	=75	=75	=75	=75	=75	=75
8D/L	6	2.r	2.r	.	.	.	.	8f\	-tri	8a\L	et	.	.
8BB/	.	.	.	.	.	.	.	8g\	et	8dd\	.	.	.
8AA/J	.	.	.	.	.	.	.	8a\	.	8cc\J	.	.	.
8D\	.	.	.	.	.	.	.	4a\	Fi-	4b\	fi-	.	.
4E\	4	.	.	.	.	.	.	.	.	.	.	.	.
!	!	!	!LO:TX:b:t=verte	!	!	!	!	!	!	!	!	!	!
.	3	.	.	.	.	.	.	8g#X\	-li-	8b\	-li-	.	.
!	!	!	!LO:PB:g=original	!	!	!	!	!	!LO:LB:g=original	!	!	!	!
=76	=76	=76-	=76	=76	=76	=76	=76	=76	=76	=76	=76	=76	=76
!	!	!LO:N:vis=2	!	!	!	!	!	!	!	!LO:N:vis=4	!	!	!
4AA/	.	4.ra	16aa\LL	.	.	.	.	4a\	-o	8cc\	-o	.	.
.	.	.	16bb-X\	.	.	.	.	.	.	.	.	.	.
.	.	.	16aa\	.	.	.	.	.	.	8rdd	.	.	.
.	.	.	16gg\	.	.	.	.	.	.	.	.	.	.
8D/	.	.	16ff\	.	.	.	.	8r	.	2rcc	.	.	.
.	.	.	16ee\JJ	.	.	.	.	.	.	.	.	.	.
!	!	!	!	!	!	!	!	!LO:N:vis=2	!	!	!	!	!
4BB-X/	.	16dd\LL	8.ff\L	.	.	.	.	4.rf	.	.	.	.	.
.	.	16ee-X\	.	.	.	.	.	.	.	.	.	.	.
.	.	16dd\	.	.	.	.	.	.	.	.	.	.	.
.	.	16cc\	16ee\K	.	.	.	.	.	.	.	.	.	.
8BB-/	.	16b-X\	8dd\J	.	.	.	.	.	.	.	.	.	.
.	.	16a\JJ	.	.	.	.	.	.	.	.	.	.	.
!	!	!LO:LB:g=original	!	!	!	!	!	!	!	!	!	!	!
=77	=77	=77	=77	=77-	=77	=77-	=77	=77	=77	=77-	=77	=77	=77
!	!	!	!	!	!	!LO:N:vis=0	!	!LO:N:vis=0	!	!LO:N:vis=00	!	!LO:N:vis=00	!LO:N:vis=00
4C/	.	16g/LL	16ee\LL	2.rD	.	1.r	.	1.rf	.	0.r	.	0.r	0.r
.	.	16f/	16dd\	.	.	.	.	.	.	.	.	.	.
.	.	16g/	16ee\	.	.	.	.	.	.	.	.	.	.
.	.	16a/	16ff\	.	.	.	.	.	.	.	.	.	.
!LO:LB:g=original	!	!	!	!	!	!	!	!	!	!	!	!	!
8C/	.	16b-X/	16gg\	.	.	.	.	.	.	.	.	.	.
.	.	16cc/JJ	16aa\JJ	.	.	.	.	.	.	.	.	.	.
4F\	.	16a/LL	4ff\	.	.	.	.	.	.	.	.	.	.
.	.	16g/	.	.	.	.	.	.	.	.	.	.	.
.	.	16a/	.	.	.	.	.	.	.	.	.	.	.
.	.	16b-X/J	.	.	.	.	.	.	.	.	.	.	.
8F\	.	8cc/J	8ee\	.	.	.	.	.	.	.	.	.	.
=78	=78	=78	=78	=78-	=78	=78	=78	=78	=78	=78	=78	=78	=78
!	!	!	!	!LO:N:vis=2	!	!	!	!	!	!	!	!	!
8G\L	.	8b-X\L	8dd\L	4.r	.	.	.	.	.	.	.	.	.
8E\	6	8cc\	8gg\	.	.	.	.	.	.	.	.	.	.
8D\J	.	8dd\J	8ff\J	.	.	.	.	.	.	.	.	.	.
!LO:TX:t=P:problem:mixed beam	!	!	!	!	!	!	!	!	!	!	!	!	!
8G\L	.	4dd\	4ee\	8r	.	.	.	.	.	.	.	.	.
8A\	.	.	.	8A\	Et	.	.	.	.	.	.	.	.
8AA/J	4	8cc#X\	8ee\	8E\	Spi-	.	.	.	.	.	.	.	.
.	3	.	.	.	.	.	.	.	.	.	.	.	.
=79	=79	=79	=79	=79	=79	=79-	=79	=79-	=79	=79	=79	=79	=79
4D/	-	4dd\	8dd\L	8.F\	-ri-	2r	.	2.ra	.	.	.	.	.
.	.	.	8a\J	.	.	.	.	.	.	.	.	.	.
.	.	.	.	16F\	-tu-	.	.	.	.	.	.	.	.
8C/	.	8r	8r	8C/	-i	.	.	.	.	.	.	.	.
!	!	!LO:N:vis=2	!LO:N:vis=2	!	!	!	!	!	!	!	!	!	!
4D/	.	4.ra	4.ra	16D\LL	San-	.	.	.	.	.	.	.	.
.	.	.	.	16C\	.	.	.	.	.	.	.	.	.
.	.	.	.	16D\	.	8d\	Et	.	.	.	.	.	.
.	.	.	.	16E\	.	.	.	.	.	.	.	.	.
8D/	-	.	.	16F\	.	8A\	Spi	.	.	.	.	.	.
.	.	.	.	16D\JJ	.	.	.	.	.	.	.	.	.
=80	=80	=80-	=80	=80	=80	=80	=80	=80-	=80	=80	=80	=80	=80
!	!	!LO:N:vis=0	!	!	!	!	!	!LO:N:vis=2	!	!	!	!	!
4G\	.	1.r	2.rcc	8G\	.	8.B-X\	ri-	4.r	.	.	.	.	.
.	.	.	.	8G\	-cto	.	.	.	.	.	.	.	.
.	.	.	.	.	.	16A\	-tu-	.	.	.	.	.	.
!	!	!	!	!LO:LB:g=original	!	!	!	!	!	!	!	!	!
8G\	.	.	.	8G\	et	8G/	-i	.	.	.	.	.	.
4G\	.	.	.	8.F\	Spi-	16A\LL	San-	8r	.	.	.	.	.
.	.	.	.	.	.	16G\	.	.	.	.	.	.	.
!	!	!	!	!	!	!	!	!LO:TX:a:t=P:problem:przesunięte łuki	!	!	!	!	!
.	.	.	.	.	.	16A\	.	(16a\LL	et	.	.	.	.
.	.	.	.	16F\	-ri-	16B-X\	.	16g\JJ)	.	.	.	.	.
8D/	.	.	.	8D/	-tui	16c\	.	(16f\LL	Spi-	.	.	.	.
.	.	.	.	.	.	16A\JJ	.	16e\JJ)	.	.	.	.	.
=81	=81	=81	=81-	=81	=81	=81	=81	=81	=81	=81-	=81	=81	=81
!	!	!	!	!	!	!	!	!	!	!LO:N:vis=00	!	!LO:N:vis=00	!LO:N:vis=00
4G\	.	.	2rf	16G\LL	San-	16B-X\LL	.	8.d\	-ri-	0.r	.	0.r	0.r
.	.	.	.	16F\	.	16A\	.	.	.	.	.	.	.
.	.	.	.	16G\	.	16B-\	.	.	.	.	.	.	.
.	.	.	.	16A\J	.	16c\J	.	16d\	-tu-	.	.	.	.
8B-X\	.	.	.	8B-X\J	.	8d\J	.	8d\	-i	.	.	.	.
!LO:TX:t=P:problem:mixed beam	!	!	!	!LO:TX:t=P:problem:mixed beam	!	!	!	!	!	!	!	!	!
8G\L	.	.	.	8G\L	.	4d\	.	8f\	San-	.	.	.	.
8A\	.	.	8aa\L	8A\	.	.	.	4e\	.	.	.	.	.
!	!	!LO:TX:b:t=Verte Cito Cito Cito	!	!	!	!	!	!	!	!	!	!	!
8AA/J	.	.	8ee\J	8AA/J	.	8c#X\	.	.	.	.	.	.	.
!	!	!LO:PB:g=original	!	!	!	!	!	!	!	!	!	!	!
=82	=82	=82	=82	=82	=82	=82	=82	=82	=82	=82	=82	=82	=82
8D\L	.	8r	8.ff\L	4D/	-cto	4d\	-cto	4d\	-cto	.	.	.	.
8F\	.	8aa\L	.	.	.	.	.	.	.	.	.	.	.
.	.	.	16ff\K	.	.	.	.	.	.	.	.	.	.
!	!	!	!	!LO:N:vis=4	!	!	!	!	!	!	!	!	!
8E\J	.	8ee\J	8cc\J	8rF	.	8r	.	8r	.	.	.	.	.
!	!	!	!	!LO:N:vis=2	!	!LO:N:vis=2	!	!LO:N:vis=2	!	!	!	!	!
4D\	.	8.ff\L	16dd\LL	4.rF	.	4.r	.	4.r	.	.	.	.	.
.	.	.	16cc\	.	.	.	.	.	.	.	.	.	.
.	.	.	16dd\	.	.	.	.	.	.	.	.	.	.
.	.	16ff\K	16ee\	.	.	.	.	.	.	.	.	.	.
8G\	.	8dd\J	16ff\	.	.	.	.	.	.	.	.	.	.
.	.	.	16dd\JJ	.	.	.	.	.	.	.	.	.	.
!	!	!	!LO:LB:g=original	!	!	!	!	!	!	!	!	!	!
=83	=83	=83	=83	=83-	=83	=83	=83	=83-	=83	=83	=83	=83	=83
!	!	!	!	!LO:N:vis=0	!	!LO:N:vis=0	!	!LO:N:vis=0	!	!	!	!	!
8E\	.	8.ee\L	8.gg\L	1.r	.	1.r	.	1.r	.	.	.	.	.
!LO:LB:g=original	!	!	!	!	!	!	!	!	!	!	!	!	!
8C/	.	.	.	.	.	.	.	.	.	.	.	.	.
.	.	16ff\L	16aa\L	.	.	.	.	.	.	.	.	.	.
8c\	.	16dd\	16ff\	.	.	.	.	.	.	.	.	.	.
.	.	16ee\JJ	16gg\JJ	.	.	.	.	.	.	.	.	.	.
8c\	.	8.cc\L	8.ee\L	.	.	.	.	.	.	.	.	.	.
8rc	.	.	.	.	.	.	.	.	.	.	.	.	.
.	.	16dd\L	16ff\L	.	.	.	.	.	.	.	.	.	.
8rF	.	16b\	16dd\	.	.	.	.	.	.	.	.	.	.
.	.	16cc\JJ	16ee\JJ	.	.	.	.	.	.	.	.	.	.
=84	=84	=84	=84	=84	=84	=84	=84	=84	=84	=84	=84	=84	=84
8F\	.	16a/LL	8cc\L	.	.	.	.	.	.	.	.	.	.
.	.	16g/	.	.	.	.	.	.	.	.	.	.	.
8rB	.	16a/	8.ccc\	.	.	.	.	.	.	.	.	.	.
.	.	16b/	.	.	.	.	.	.	.	.	.	.	.
8rF	.	16cc/	.	.	.	.	.	.	.	.	.	.	.
.	.	16a/JJ	16bb-X\Jk	.	.	.	.	.	.	.	.	.	.
!LO:TX:t=P:problem:mixed beam	!	!LO:TX:t=P:problem:mixed beam	!	!	!	!	!	!	!	!	!	!	!
8B-X\L	.	8f/L	8bb-\	.	.	.	.	.	.	.	.	.	.
8c\	.	8ff\	4gg\	.	.	.	.	.	.	.	.	.	.
!	!	!	!	!LO:TX:a:t=P:problem:podwójna kreska	!	!	!	!	!	!	!	!LO:TX:a:t=P:problem:podwójna kreska	!LO:TX:a:t=P:problem:kreska z obustronną repetycją
8C/J	.	8ee\J	.	.	.	.	.	.	.	.	.	.	.
!	!	!	!	!	!	!	!	!LO:LB:g=original	!	!	!	!	!
=85	=85	=85	=85	=85	=85	=85	=85	=85	=85	=85-	=85	=85	=85
*M2/2	*	*M2/2	*M2/2	*M2/2	*	*M2/2	*	*M2/2	*	*M2/2	*	*M2/2	*M2/2
*met(c)	*	*met(c|)	*met(C.)	*met(c)	*	*met(C.)	*	*met(C.)	*	*met(c)	*	*met(c|)	*met(c|)
!LO:TX:b:t=Sicut erat	!	!LO:TX:b:t=Sicut	!	!	!	!	!	!	!	!	!	!	!LO:TX:b:t=Sicut
8F\L	.	8ff\L	8aa\L	8F\	Si-	8c\	Si-	8f\	Si-	8a/	Si-	0ra	0ra
8E\	6	8cc\J	8ee\	8E\	-cut	8c\	-cut	8g\	-cut	8g/	-cut	.	.
8F\	.	8ff\L	8aa\	8F\	e-	8c\	e-	8f\	e-	8a/	e-	.	.
8C\J	.	8gg\	8ccc\J	8C/	-rat	8c\	-rat	8e\	-rat	8g/	-rat	.	.
!	!	!	!	!	!	!LO:SIC:custos na końcu linijki:v	!	!	!	!	!	!	!
!	!	!	!	!	!	!LO:LB:g=original	!	!	!	!	!	!	!
8F\L	.	8aa\	8aa\L	8F\	in	8c\	in	8f\	in	8a\	in	.	.
8E\	.	8gg\J	8ee\	8E\	prin-	8G/	prin-	8g\	prin-	8cc\	prin-	.	.
8F\	.	8aa\L	8aa\	8F\	-ci-	8c\	-ci-	8f\	-ci-	8a\	-ci-	.	.
8C\J	.	8ee\J	8ccc\J	8C/	-pi-	8c\	-pi-	8e\	-pi-	8g/	-pi-	.	.
=86	=86	=86	=86	=86	=86	=86	=86	=86	=86	=86	=86	=86	=86
4F\	.	4cc\	4aa\	4F\	-o	4c\	-o	4f\	-o	4a\	-o	.	.
!	!	!	!	!LO:LB:g=original	!	!	!	!	!	!	!	!	!
8r	.	4r	4r	8r	.	8r	.	8r	.	8r	.	.	.
8G\	.	.	.	8A\	et	8B\	et	8d\	et	8dd\	et	.	.
8A\L	.	2rf	2ra	8A\	nunc	8A\	n(un)c	8a\	nunc	8cc\	nunc	.	.
8E\J	6	.	.	8E\	et	8c\	et	8g\	et	8ee\	et	.	.
4G\	.	.	.	8G\	Sem-	8B\	Sem-	8e\	Sem-	8dd\	Sem-	.	.
.	.	.	.	8G\	-per	8A\	-per	8e\	-per	8dd\	-per	.	.
=87	=87	=87	=87	=87	=87	=87	=87	=87	=87	=87-	=87	=87	=87
!LO:TX:b:t=Solo	!	!	!	!LO:TX:a:t=P:problem:brak taktu	!	!	!	!	!	!	!	!	!
8c\L	.	8ee\L	8gg\L	1ryy	.	1r	.	1r	.	1ree	.	8ee\L	8gg\L
8B\	.	8dd\	8gg\	.	.	.	.	.	.	.	.	8dd\	8gg\
8c\	.	8ee\	8gg\	.	.	.	.	.	.	.	.	8ee\	8gg\
8G\J	.	8dd\J	8gg\J	.	.	.	.	.	.	.	.	8dd\J	8gg\J
!	!	!	!	!	!	!	!	!	!	!	!	!	!LO:LB:g=original
!	!	!	!	!	!	!	!	!	!	!	!	!LO:TX:b:t=Sicut	!
8c\L	.	8cc\L	8ee\L	.	.	.	.	.	.	.	.	8cc\L	8ee\L
8B\	.	8g\	8dd\	.	.	.	.	.	.	.	.	8g\	8dd\
8c\	.	8cc\	8ee\	.	.	.	.	.	.	.	.	8cc\	8ee\
8G\J	.	8dd\J	8gg\J	.	.	.	.	.	.	.	.	8dd\J	8gg\J
!	!	!LO:LB:g=original	!	!	!	!	!	!	!	!	!	!	!
=88	=88	=88	=88	=88	=88	=88-	=88	=88-	=88	=88-	=88	=88	=88
!	!	!	!	!	!	!	!	!	!	!	!	!LO:TX:t=P:problem:mixed beam	!
4c\	.	8cc\L	4ee\	2rBB	.	2r	.	2r	.	2rcc	.	8cc\L	4ee\
.	.	8g\J	.	.	.	.	.	.	.	.	.	8g/J	.
!LO:LB:g=original	!	!	!	!	!	!	!	!	!	!	!	!	!
8r	.	8r	8r	.	.	.	.	.	.	.	.	4r	4r
8D/	.	8cc\	8ff#X\L	.	.	.	.	.	.	.	.	.	.
8E/L	.	8b\L	8gg\	4r	.	4r	.	4r	.	4ree	.	2ra	2r
8C/J	6	8cc\	8aa\J	.	.	.	.	.	.	.	.	.	.
!	!	!	!	!	!	!	!	!	!	!LO:LB:g=original	!	!	!
4D/	#	8a\	8ffn\L	8r	.	8r	.	8r	.	8rdd	.	.	.
.	.	8dd\J	8aa\J	8D/	et	8A\	et	8f#X\	et	8dd\	et	.	.
!	!	!	!	!	!	!	!	!	!	!	!	!LO:LB:g=original	!
=89	=89	=89	=89	=89	=89	=89	=89	=89	=89	=89	=89	=89	=89
8G\L	.	8b\L	8gg\L	8G\	nunc	8B\	n(un)c	8g\	nunc	8b\	nunc	2r	2r
8F#X\J	.	8a\	8aa\J	8F#X\	et	8d\	et	8d\	et	8a\	et	.	.
!	!	!	!LO:LB:g=original	!	!	!	!	!LO:LB:g=original	!	!	!	!	!
!	!	!	!LO:TX:t=P:problem:mixed beam	!	!	!	!	!	!	!	!	!	!
4G\	.	8b\	8gg\L	8G\	Sem-	8B\	Sem-	8g\	Sem-	8b\	Sem-	.	.
.	.	8b\J	8g/J	8G\	-per	8G/	-per	8g\	-per	8b\	-per	.	.
*	*	*	*	*	*ij	*	*	*	*	*	*	*	*
8c\L	.	8ee\L	8gg\L	8c\	Sem-	8e\	n(un)c	8g\	n(un)c	8ee\	nunc	8ee\L	8gg\L
8B\J	.	8dd\	8gg\	8B\	-per	8g\	et	8g\	et	8dd\	et	8dd\	8gg\
*	*	*	*	*	*Xij	*	*	*	*	*	*	*	*
4c\	.	8ee\	8gg\	8c\	Sem-	8e\	Sem-	8g\	Sem-	8ee\	Sem-	8ee\	8gg\
.	.	8ee\J	8gg\J	8c\	per	8c\	per	8e\	per	8ee\	-per	8ee\J	8gg\J
!	!	!	!	!	!	!LO:LB:g=original	!	!	!	!	!	!	!
=90	=90	=90	=90	=90	=90	=90	=90	=90	=90	=90-	=90	=90	=90
8B\L	.	8dd\L	16gg\LL	1rA	.	2r	.	4r	.	1ree	.	8dd\L	16gg\LL
.	.	.	16aa\	.	.	.	.	.	.	.	.	.	16aa\
8G\J	.	8dd\	16gg\	.	.	.	.	.	.	.	.	8dd\	16gg\
.	.	.	16ff\JJ	.	.	.	.	.	.	.	.	.	16ff\JJ
4c\	.	8cc\	8ee\L	.	.	.	.	8g\	et	.	.	8cc\	8ee\L
.	.	8cc\J	8ee\J	.	.	.	.	8g\	in	.	.	8cc\J	8ee\J
*clefC4	*	*	*	*	*	*	*	*	*	*	*	*	*
8c\L	.	2ra	2ra	.	.	8c\	et	8a\	Sae-	.	.	2ra	4r
8c\J	6	.	.	.	.	8c\	in	16a\	-cu-	.	.	.	.
.	.	.	.	.	.	.	.	16a\	-la	.	.	.	.
!	!	!	!	!	!	!	!	!	!	!	!	!	!LO:N:vis=2
8d\L	.	.	.	.	.	8d\	Sae-	8f\	Sae-	.	.	.	4r
16d\L	.	.	.	.	.	16d\	-cu-	8f\	-cu-	.	.	.	.
16d\JJ	.	.	.	.	.	16d\	-la	.	.	.	.	.	.
=91	=91	=91	=91	=91-	=91	=91	=91	=91	=91	=91-	=91	=91	=91
*clefF4	*	*	*	*	*	*	*	*	*	*	*	*	*
8G\L	.	4r	1r	8G\	et	8B\	Sae-	8g\	lo-	4r	.	0ra	0ra
8G\J	.	.	.	8G\	in	8B\	-cu-	8g\	-ru(m)	.	.	.	.
8A\L	.	8cc\L	.	8A\	Sae-	8c\	-lo-	8e\	et	8cc\	et	.	.
16A\L	.	8cc\J	.	16A\	-cu-	8c\	-ru(m)	8e\	in	8cc\	in	.	.
16A\JJ	.	.	.	16A\	-la	.	.	.	.	.	.	.	.
!	!	!	!	!LO:LB:g=original	!	!	!	!	!	!	!	!	!
8F\L	.	8dd\L	.	8F\	Sae-	8A\	Sae-	8f\	Sae-	8dd\	Sae-	.	.
8F\J	6	16dd\L	.	8F\	-cu-	8A\	-cu-	16f\	-cu-	16dd\	-cu-	.	.
.	.	16dd\JJ	.	.	.	.	.	16f\	-la	16dd\	-la	.	.
!	!	!	!	!	!	!	!	!LO:LB:g=original	!	!	!	!	!
8G\L	.	8b\L	.	8G\	-lo-	8B\	-lo-	8d\	Sae-	8b\	Sae-	.	.
8G\J	.	8b\J	.	8G\	-ru(m)	8B\	-ru(m)	8d\	-cu-	8b\	-cu-	.	.
=92	=92	=92	=92-	=92	=92	=92	=92	=92	=92	=92	=92	=92	=92
8E\L	.	4cc\	8gg\L	8E\	et	8G\L	-a-	8e\	-lo-	8cc\	-lo-	.	.
8E\J	6	.	8gg\J	8E\	in	16c\L	.	8e\	-rum	8cc\	-rum	.	.
.	.	.	.	.	.	16B\JJ	.	.	.	.	.	.	.
!LO:LB:g=original	!	!	!	!	!	!	!	!	!	!LO:LB:g=original	!	!	!
8F\L	.	4cc\	8aa\L	8F\	Sae-	8A\L	.	8c\L	A-	4ree	.	.	.
16F\L	.	.	16aa\L	16F\	-cu-	16B\L	.	16d\L	.	.	.	.	.
16F\JJ	.	.	16aa\JJ	16F\	-la	16c\JJ	.	16e\JJ	.	.	.	.	.
8D\L	.	4r	8ff\L	8D/	Sae-	16d\LL	.	16f\LL	.	4rcc	.	.	.
.	.	.	.	.	.	16c\	.	16e\	.	.	.	.	.
8E\	.	.	8gg\	8E\	-cu-	16d\	.	16f\	.	.	.	.	.
.	.	.	.	.	.	16e\JJ	.	16g\JJ	.	.	.	.	.
8F\	.	8a/L	8aa\	8F\	-lo-	16d\LL	.	16f\LL	.	8cc\	et	.	.
.	.	.	.	.	.	16e\	.	16g\	.	.	.	.	.
8D\J	.	8a/J	8ff\J	8D\	-ru(m)	16d\	.	16f\	.	8cc\	in	.	.
.	.	.	.	.	.	16c\JJ	.	16e\JJ	.	.	.	.	.
=93	=93	=93	=93	=93	=93	=93	=93	=93	=93	=93	=93	=93-	=93-
8G\L	.	8b\L	4gg\	8G\L	A-	8B\	-men	8d\	-men	8b\	Sae-	1rcc	1rcc
16G\L	.	16b\L	.	16G\L	.	8G/	.	8d\	.	16b\	-cu-	.	.
16F\JJ	.	16b\JJ	.	16F\JJ	.	.	.	.	.	16b\	-la	.	.
8E\L	6	8g\L	4gg\	8E\L	.	8c\L	-a-	8g\L	A-	8g/	Sae-	.	.
8C\J	.	8g\J	.	8C\J	.	16c\L	.	16a\L	.	8g/	-cu-	.	.
.	.	.	.	.	.	16B\JJ	.	16g\JJ	.	.	.	.	.
!	!	!	!	!	!	!LO:SIC:custos na końcu linijki:v	!	!	!	!	!	!	!
!	!	!LO:LB:g=original	!	!	!	!LO:LB:g=original	!	!	!	!	!	!	!
8F\L	.	8cc\L	2r	8F\L	.	8A\L	.	[8f\	.	8a\	-lo-	.	.
8D\J	.	8cc\J	.	8D\J	.	8c\J	.	8f\]	.	8a\	-ru(m)	.	.
!	!	!	!	!LO:TX:t=P:problem:mixed beam	!	!	!	!	!	!	!	!	!
4G\	.	4r	.	8G\L	.	4B\	.	4d\	.	4g/	A-	.	.
.	.	.	.	8GG/J	.	.	.	.	.	.	.	.	.
=94	=94	=94	=94	=94	=94	=94	=94	=94	=94	=94	=94	=94	=94-
4C/	.	8ee\L	8gg\L	4C/	-men-	4c\	-men	4e\	-men	4g/	-men	4ee\	4gg\
.	.	8ee\J	8gg\J	.	.	.	.	.	.	.	.	.	.
8r	.	8ff\L	8aa\L	4r	.	4r	.	4r	.	4r	.	8r	8r
8AA/	6	16ff\L	16aa\L	.	.	.	.	.	.	.	.	8ff\	8aa\
.	.	16ff\JJ	16aa\JJ	.	.	.	.	.	.	.	.	.	.
4BB-X/	.	8dd\L	8ff\L	2rBB	.	2r	.	2r	.	2rf	.	4dd\	4ff\
.	.	8dd\	8ff\	.	.	.	.	.	.	.	.	.	.
8r	.	8ee\	8gg\	.	.	.	.	.	.	.	.	8r	8r
8GG/	6	8ee\J	8gg\J	.	.	.	.	.	.	.	.	8ee\	8gg\
=95	=95	=95	=95	=95-	=95	=95	=95	=95	=95	=95-	=95	=95	=95
4AA/	.	8cc\L	8ee\L	1rD	.	1r	.	0r	.	1ra	.	4cc\	4ee\
.	.	8cc\J	16ee\L	.	.	.	.	.	.	.	.	.	.
.	.	.	16ee\JJ	.	.	.	.	.	.	.	.	.	.
8r	.	8dd\L	8ff\L	.	.	.	.	.	.	.	.	8r	8r
8FF/	6	16dd\L	8ff\J	.	.	.	.	.	.	.	.	8dd\	8ff\
.	.	16dd\JJ	.	.	.	.	.	.	.	.	.	.	.
4GG/	.	8b\L	16dd\LL	.	.	.	.	.	.	.	.	8g/L	16dd\LL
.	.	.	16gg\	.	.	.	.	.	.	.	.	.	16gg\
.	.	8b\J	16ff\	.	.	.	.	.	.	.	.	8g/J	16ff\
.	.	.	16gg\JJ	.	.	.	.	.	.	.	.	.	16gg\JJ
!	!	!	!LO:LB:g=original	!	!	!	!	!	!	!	!	!	!
8AA/L	.	16cc\LL	16ee\LL	.	.	.	.	.	.	.	.	8cc\L	16ee\LL
.	.	16a\JJ	16cc\	.	.	.	.	.	.	.	.	.	16cc\
8FF/J	.	16dd\LL	16ff\	.	.	.	.	.	.	.	.	16dd\L	16ff\
.	.	16cc\JJ	16ee\JJ	.	.	.	.	.	.	.	.	16cc\JJ	16ee\JJ
!	!	!	!	!LO:LB:g=original	!	!	!	!	!	!	!	!	!
=96	=96	=96	=96	=96	=96	=96-	=96	=96	=96	=96-	=96	=96	=96
4GG/	.	8b\L	4dd\	2rBB	.	2r	.	.	.	4r	.	4g/	4dd\
.	.	16a\L	.	.	.	.	.	.	.	.	.	.	.
.	.	16b\JJ	.	.	.	.	.	.	.	.	.	.	.
4C/	.	8cc\L	4cc\	.	.	.	.	.	.	8g/	et	4e/	4cc\
.	.	8g\J	.	.	.	.	.	.	.	8g/	in	.	.
8C/L	6	8a\L	2ra	8C/	et	4r	.	.	.	8a\	Sae-	2ra	2r
8C/J	.	16a\LJ	.	8D/	in	.	.	.	.	16a\	-cu-	.	.
.	.	16a\J	.	.	.	.	.	.	.	16a\	-la	.	.
8D/L	.	8f#X/L	.	8D/	Sae-	8A\	et	.	.	8f#X/	Sae-	.	.
!	!	!	!	!	!	!	!	!	!	!LO:LB:g=original	!	!	!
16D/L	.	8f#/J	.	16D/	-cu-	8A\	in-	.	.	8f#X/	-cu-	.	.
16D/JJ	.	.	.	16D/	-la	.	.	.	.	.	.	.	.
!LO:LB:g=original	!	!	!	!	!	!	!	!	!	!	!	!	!LO:LB:g=original
=97	=97	=97	=97	=97	=97	=97	=97	=97-	=97	=97	=97	=97	=97
8BB/L	6	8g/L	8dd\L	8BB/	Sae-	8B\	-Sae-	8d\	et	8g/	-lo-	0ra	00r
8BB/	.	8g/J	16gg\L	8BB/	-cu-	16B\	-cu-	8d\	in	8g/	-ru(m)	.	.
.	.	.	16ff\JJ	.	.	16B\	-la	.	.	.	.	.	.
!	!	!	!	!	!	!	!	!LO:SIC:custos na końcu linijki:v	!	!	!	!	!
!	!	!LO:LB:g=original	!	!	!	!	!	!LO:LB:g=original	!	!	!	!	!
8C/	.	8e/L	8ggL	8C/	-lo-	8G\L	a-	8e\	Sae-	8e/L	A-	.	.
8C/J	.	16f/L	8ee\J	8C/	-ru(m)	16c\L	.	16e\	-cu-	16f/L	.	.	.
.	.	16g/JJ	.	.	.	16B\JJ	.	16e\	-la	16g/JJ	.	.	.
*	*	*	*	*	*ij	*	*	*	*	*	*	*	*
8AA/L	.	16a/LL	8ee\L	8AA/	Sae-	8c\L	.	8c\	Sae-	16a\LL	.	.	.
.	.	16g/	.	.	.	.	.	.	.	16g\	.	.	.
8BB/	.	16a/	16aa\L	8BB/	-cu-	8B\J	.	8d\	-cu-	16a\	.	.	.
.	.	16b/JJ	16gg\JJ	.	.	.	.	.	.	16b\JJ	.	.	.
8C/	.	16a/LL	8aa\L	8C/	-lo-	4A\	.	8e\	-lo-	16a\LL	.	.	.
.	.	16b/	.	.	.	.	.	.	.	16b\	.	.	.
8AA/J	.	16a/	8aa\J	8AA/	-ru(m)	.	.	8d\	-ru(m)	16a\	.	.	.
*	*	*	*	*	*Xij	*	*	*	*	*	*	*	*
.	.	16g/JJ	.	.	.	.	.	.	.	16g\JJ	.	.	.
=98	=98	=98	=98	=98	=98	=98	=98	=98	=98	=98	=98	=98	=98
8D/L	#	8f#X/L	2ra	8D/L	A-	4A/	men'	8d\	A-	8f#X/	.	.	.
16D/L	.	8d/J	.	16D/L	.	.	.	8d\	-men	8d/	-men'	.	.
16C/JJ	.	.	.	16C/JJ	.	.	.	.	.	.	.	.	.
8BB/L	.	8dd\L	.	8BB/L	.	8G/	et	8d\L	a-	8dd\L	A-	.	.
8GG/J	.	16ee\L	.	8GG/	.	8G/	in	16g\L	.	16ee\L	.	.	.
.	.	16dd\JJ	.	.	.	.	.	16f\JJ	.	16dd\JJ	.	.	.
8C/L	7	8cc\L	8r	8C/	.	8A/	Sae-	8e\L	.	8cc\L	.	.	.
8AA/J	.	8b\J	8dd\	8AA/J	.	16A/	-cu-	8g\J	.	8b\J	.	.	.
.	.	.	.	.	.	16A/	-la	.	.	.	.	.	.
4D/	#	4a/	16dd\LL	4D/	.	8F#X/	Sae-	4f#X\	.	4a\	-men	.	.
.	.	.	16ee\	.	.	.	.	.	.	.	.	.	.
.	.	.	16dd\	.	.	8D/	-cu-	.	.	.	.	.	.
.	.	.	16cc\JJ	.	.	.	.	.	.	.	.	.	.
!	!	!	!	!	!	!LO:LB:g=original	!	!	!	!	!	!	!
=99	=99	=99	=99	=99	=99	=99	=99	=99	=99	=99	=99	=99-	=99
4GG/	.	4b/	4b\	4GG/	-men	8G/	-lo-	4g\	-men	4b\	a-	1rcc	.
.	.	.	.	.	.	8G/	-rum	.	.	.	.	.	.
4C/	.	4r	8g\L	4r	.	4r	.	8g\	et	8g\L	.	.	.
.	.	.	16cc\L	.	.	.	.	8g\	in	16cc\L	.	.	.
.	.	.	16b\JJ	.	.	.	.	.	.	16b\JJ	.	.	.
4F\	.	2ra	8cc\L	2rBB	.	8c\	et	8a\	Sae-	16a\LL	.	.	.
.	.	.	.	.	.	.	.	.	.	16b\	.	.	.
.	.	.	8a\J	.	.	8c\	in	16a\	-cu-	16cc\	.	.	.
.	.	.	.	.	.	.	.	16a\	-la	16a\JJ	.	.	.
4D\	-	.	8a\L	.	.	8d\	Sae-	8f\	Sae-	16dd\LL	.	.	.
.	.	.	.	.	.	.	.	.	.	16cc\	.	.	.
.	.	.	16dd\L	.	.	16d\	-cu-	8f\	-cu-	16dd\	.	.	.
.	.	.	16cc\JJ	.	.	16d\	-la	.	.	16ee\JJ	.	.	.
!	!	!	!	!LO:LB:g=original	!	!	!	!LO:LB:g=original	!	!LO:LB:g=original	!	!	!
=100	=100	=100	=100	=100	=100	=100	=100	=100	=100	=100	=100	=100	=100
4G\	.	2r	8dd\L	8G\	et	8B\	Sae-	8g\	-lo-	4dd\	.	2ra	.
.	.	.	8b\	8G\	in	8B\	-cu-	8g\	-rum	.	.	.	.
4A\	.	.	8ee\	8A\	Sae-	8c\	-lo-	8e\	Sae-	4cc\	-men	.	.
.	.	.	8ee\J	16A\	-cu-	8c\	-rum	8e\	-cu-	.	.	.	.
.	.	.	.	16A\	-la	.	.	.	.	.	.	.	.
4F\	6	4r	8a/L	8F\	Sae-	8A\L	a-	8f\	-lo-	4r	.	4r	.
.	.	.	8a/J	8F\	-cu-	16d\L	.	8f\	-rum	.	.	.	.
.	.	.	.	.	.	16c\JJ	.	.	.	.	.	.	.
4G\	.	8dd\L	8dd\L	8G\	-lo-	8B\L	.	8d\L	a-	8dd\	et	8dd\L	.
.	.	8dd\J	8dd\J	8G\	-ru(m)	16B\L	.	16e\L	.	8dd\	in	8dd\J	.
.	.	.	.	.	.	16A\JJ	.	16f\JJ	.	.	.	.	.
!	!	!	!LO:LB:g=original	!	!	!	!	!	!	!	!	!	!
=101	=101	=101	=101	=101	=101	=101	=101	=101	=101	=101	=101	=101	=101-
!	!	!	!LO:TX:t=P:problem:mixed beam	!	!	!	!	!	!	!	!	!	!
4E\	6	8ee\L	8g/L	8E\	et	8G\L	.	8g\	.	8ee\	Sae-	8ee\L	8gg\L
.	.	16ee\L	8gg\J	8E\	in	16c\L	.	8g\	-men	16ee\	-cu-	16ee\L	8gg\J
.	.	16ee\JJ	.	.	.	16B\JJ	.	.	.	16ee\	-la	16ee\JJ	.
4F\	.	8cc\L	8aa\L	8F\	Sae-	8A\	.	8c\L	a-	8cc\	Sae-	8cc\L	8aa\L
.	.	8cc\J	16aa\L	16F\	-cu-	8A\	-men	16d\L	.	8cc\	-cu-	8cc\J	16aa\L
.	.	.	16aa\JJ	16F\	-la	.	.	16e\JJ	.	.	.	.	16aa\JJ
!	!	!	!	!	!	!	!	!	!	!	!	!LO:LB:g=original	!
8D\L	.	8dd\L	8ff\L	8D\	Sae-	4r	.	8f\	.	8dd\	-lo-	8dd\L	8ff\L
8E\	.	8dd\J	8gg\	8E\	-cu-	.	.	8e\	.	8dd\	-ru(m)	8dd\J	8gg\
8F\	.	8a\L	8aa\	8F\	-lo-	8A\	et	4d\	.	8a\L	A-	8r	8aa\
8D\J	.	16dd\L	8gg\J	8D/	-rum	8A\	in	.	.	16dd\L	.	8dd\	8ff\J
.	.	16cc\JJ	.	.	.	.	.	.	.	16cc\JJ	.	.	.
!LO:LB:g=original	!	!LO:LB:g=original	!	!	!	!LO:LB:g=original	!	!	!	!	!	!	!
=102	=102	=102	=102	=102	=102	=102	=102	=102	=102	=102	=102	=102	=102
8G\L	.	8b/L	8gg\L	8G\L	A-	8B\	Sae-	4d\	-men	8b\L	.	8dd\L	8gg\L
16G\L	.	16b/L	8gg\J	16G\L	.	16B\	-cu-	.	.	16b\	.	8dd\J	8gg\J
16F\JJ	.	16a/JJ	.	16F\JJ	.	16B\	-la	.	.	16a\Jk	.	.	.
8E\L	6	8g/L	8r	8E\L	.	8G/	Sae-	8g\L	a-	8g\L	.	8r	8rff
8C\J	.	16cc/L	8gg\L	8C\J	.	8G/	-cu-	8e\	.	16cc\L	.	8dd\	8gg\L
.	.	16b/JJ	.	.	.	.	.	.	.	16b\JJ	.	.	.
!	!	!	!	!LO:LB:g=original	!	!	!	!	!	!	!	!	!
8G\L	.	8a/L	8ff\	8F\L	.	8A/	-lo-	8a\	.	8a\	.	8cc\L	8ff\
8D\J	.	8a/J	8ff\J	8D\J	.	8c\	-rum	8f\J	.	8a\	-men	8cc\J	8ff\J
!	!	!	!	!LO:TX:t=P:problem:mixed beam	!	!	!	!	!	!	!	!	!
4G\	.	4g/	4dd\	8G\L	.	4B\	a-	4g\	.	4g/	A-	4g/	4dd\
.	.	.	.	8GG/J	.	.	.	.	.	.	.	.	.
!	!	!	!	!	!	!	!	!	!	!LO:LB:g=original	!	!	!
=103	=103	=103	=103	=103	=103	=103	=103	=103	=103	=103	=103	=103	=103
4C/	.	8g/L	4cc\	4C/	-men	4c\	-men	4e\	.	4g/	-men	4e/	4cc\
.	.	8e/J	.	.	.	.	.	.	.	.	.	.	.
4GG/	.	8g/L	4dd\	4GG/	A-	4B\	a-	4d\	.	4g/	A-	4g/	4dd\
.	.	16g/L	.	.	.	.	.	.	.	.	.	.	.
.	.	16f/JJ	.	.	.	.	.	.	.	.	.	.	.
4C/	.	4e/	4cc\	4C/	-men	4c\	-men	4e\	-men	4g/	-men	4e/	4cc\
!LO:TX:b:B:t=exſ(libri)s Kaʒi Kolasin	!	!LO:TX:b:t=Lauſ Deo	!	!	!	!LO:TX:b:i:t=A.D.M.D.G B V M O S S H	!	!	!	!	!	!LO:TX:b:t=Laus De C.R.	!LO:TX:b:t=Laus Deo\n C.R.
4r	.	4r	4r	4r	.	4r	.	4r	.	4r	.	4r	4r
==	==	==	==	==	==	==	==	==	==	==	==	==	==
*-	*-	*-	*-	*-	*-	*-	*-	*-	*-	*-	*-	*-	*-
!!!system-decoration: [g1][g2][g3]s9
!!!RDF**kern: < = below
!!!ENC: Marta Lawrence
!!!END: 2020-10-19
!!!ENC: Tomasz Grochalski
!!!END: 2020-04-19
